<Weblab2>
  <config><![CDATA[{
  "published": true,
  "game_id": 74,
  "created_at": "2026-03-26T16:30:43.000Z",
  "level_num": "custom",
  "user_id": 22366,
  "properties": {
    "start_sources": {
      "folders": {
      },
      "files": {
      },
      "openFiles": [

      ]
    },
    "encrypted": "false",
    "project_template_level_name": "ai-and-algorithmic-decisions-lesson2-template_2026",
    "submittable": "false",
    "disable_edit_run_for_submission": "false",
    "hide_share_and_remix": "false",
    "widget_view": "false",
    "initial_view_mode": "split",
    "predict_settings": {
      "isPredictLevel": false,
      "solution": "",
      "questionType": "freeResponse",
      "placeholderText": "",
      "multipleChoiceOptions": [
        ""
      ],
      "freeResponseHeight": 50,
      "codeEditableAfterSubmit": false
    },
    "ai_tutor_prompt_settings": {
      "answerTypes": [
        "explainCode",
        "documentation"
      ],
      "answerTypeCustomizations": {
      }
    },
    "long_instructions": "### **Write It Yourself**\r\n\r\n#### **Do This:**\r\n\r\n1. **Build:** Make Button Two, when clicked, show this message in the text area: \"Button Two was clicked!\" Add your code without deleting the code for Button One.\r\n\r\n2. **Test:** Click both Button One and Button Two and check that they work as expected.\r\n\r\n3. **Check Code:** Look for where your code:\r\n\r\n   * selects the button\r\n   * adds an event listener\r\n   * listens for a click\r\n   * changes the message\r\n\r\n---\r\n\r\n:::details [Need help? Ask AI for hints or explanations.]\r\n\r\n<br/>\r\n\r\nIn this level, AI can help you:\r\n\r\n* understand what a line of code does\r\n* remember JavaScript syntax\r\n* suggest what kind of code you need next\r\n\r\nIn this level, AI should **not** write the JavaScript for you.\r\n\r\n**Try asking:**\r\n\r\n* “How do I write a click event listener in JavaScript?”\r\n* “What does `getElementById` do?”\r\n* “How do I change text in JavaScript?”\r\n\r\nIf the answer is confusing, try:\r\n\r\n* “Can you explain this in simpler terms?”\r\n* “Can you give me a hint instead of the answer?”\r\n\r\n:::\r\n\r\n",
    "encrypted_exemplar_sources": "Dn7HQlwz0pFFO6c3d2DdXB/55clGnnwQzLWAr3sovMrDkWcSmhQ0RYyRmOkq\nwhWTBCWgVYhRz1+78oVOQAo/g4F0QYn1j8rOG4plIsy147GZ4rqTZtSJvl9a\nuN4T1Dl7P98Xp0u/OvuSHU2p7KOvKC3GaCBQUM9wcEzUQXtYGBi1V3l+ogLU\nLG7Y9bo1/hCUarWn8ganfopjn2E+Vkh8TgjnODkhpKn8ai3/i6pY9fDQPar+\ndQr2PwuzZ/UcRkmB8FUcoHFF1w6UcXypXNlCPzXCl+y+pEbG8HQa90xf+bO7\niYqvM4LTG41vyIJht1BGuxj+Ktj1ewRLPY5D2TfDLj/MP/lBrMpBHgVhMpeY\nY9q4Y+HSKWqy+jtXzS73OjejgPhy8NKX26nQF4DZiTDqteezLEDS4LyMl5hl\nkjKLarC+6Z4ulrBecX+VPWkDF6rfBRpXzWIgTNsCQqR0EuWKpxAMIQ27n8Ao\nbUQZwk5zNlurze+LirRU80gW/XvUzaRpmrkj/UNW5iPuWdRIroV+7FSvJ+wh\ni0lG417gVyIdNM2IGS3VvFabTyfb6yLs4u9+SRUg/0TaD4hUBohK1fhaHrMO\nJ6NXa31F5yIV9WcX3dFrLG4/aAg0BcAN56oZ9uwuvFvNl5buq5sISWsG6460\ns0UU9zVPEJLlj4JGwvGkH9mjhDzq2tui3oZOG8QjgwJvNI1B7Zs2+bwYggon\n5GN97nuXLMaDw8HEYT+ex8uwGb3jWUUcDVogngudc6PYA2ySVMX0SwANRx4a\nD1qnZJtd2OCImvCGgepiPCOjxadiWwfAb0HHTdBBl08M2vH+VNZqH9x3y9P+\nCQg0WdYCLtZ1aVACgz62ziM3FQX4DiA+f2YCZEVgu5E9ZpSzUg3VtlVMkxEY\nhCky6DzHbBdn2fZyH2QqrZBEAiGREkxPYKqaoMy4MXrKFHdnG4eEc71CbzWV\nSbw1YcdM8erTKRXiWVRNRmnAhTlZLc4DsBB8XqoW76P0DWyb7MHsvUGcCcYQ\nz4hD064G8XCQdTaf63ZfomqfWI8sauUJbNb+SaY6q2zPNszb4aJ7acW46Zmy\nQOD6YuDxkCGtBJsrvOHEZiKP8Q4yCuyGNZu/laeRfE+Kf7xoDy7k++iMAfkD\nCaxlD1Hl4OetdoV2iPNkUQqglsB0v/X6Ld8fzgCk5kLNjKTBpejxlAuQL8zc\ne26JarI6/JGVvzgH1MnRe8e77VlMziIb+LlX9hWD69G47lySvsWsyiw6mhjd\nImW10fqoPw7+oFjHUTNxu9vgFF9MckpilnmfJyYQbYFrrGj1/uU3M/K8dBJe\nSdkv+GoHKu7kj9i4uApVlerCSs6RuQO8ICPMDB4VjdcjR24/kSwNgKtOqlWZ\nJMyvU//NpDukqo8PaspCXojgtB+6lEIvPNaHRxjLrjvg9bfaLOzesbZuXYJt\nV3NbrVjCAYb6rETsl/irW2nA/icXeES8gXGWdcJeVZ5sWkkA+QDSrskQWsH1\nMVePYzgFx0chjfBNu9M9vDHWHXOJlB2YOp4fpF3rmj1hBRVPmuUUaSviNQ74\noTx6zfmkbaaxesUeCSETb95OrsJPYBa13eu00d1Rg5MJlB9dSjQkzMDQ/+Uu\nQFz+OuPp1BZR8bRGOc037DE+zoGGygAjKEH6gr2Sq0h8epu3W1YmPle1aRGe\n8FbYwpPuBy876Eosw2oUQtGZAcLwexvqrvgcqp4/LFsM2HShedvE9oMO3/qS\naZf80uZiRUSKIagrGvsHTjuQEqej6jsCNU0sA0w/26uEIFlle2dYSFwuToqC\n/pL4swkgV/ztDLOGUS3KXmWb7LvywZABOSWzveXPMEBdFYOxgx2p1jAkOZQw\ni8IkRo/DUfOjcP4pYMBx8Iok5yZ9p5NfOytoENtjZIuHtoLA0UxvCxnLP4KO\nIMxKKFZp2FL8j0z+ztMgTNcX5RVi8ukZdFZ/etqN/iY83gdN5+rHkxsjGhZI\nG++GhnCiVxv+9V6+z32eJ2MsREXD9/3ohFTreZLhrdGL9sHiteYcJwb6j1vJ\nycZaUkDLr1op/Qy6C7pSOWLsO19t3zrAv8QsPYcHlNEDun6RqlB9kTKKUjbn\nu/ipcY6rg2KlLTyI/vGC1BMJWNP6Izwy33P02b/aRKJrQ3mek5Kwxav/kA6p\n92aDGeNoJVszKMWKlK+avYWku6cDuYybId5M/GxpgySInP1fSUg5llFK98Mq\nAoB5Z3MWXr3eCEQ1I2yGBZX87iOJ2QmPxvlPiUHYV2Q5cC8zhg7K25Mq5ma2\nsm2XesnB6GUI5bZGtvaoV8eIqYEZWvpjvQAu0waIM+elHbeIMRZR3+Gph01x\nin1re50ze1M0xdD4l9BUwEJv/sBtGwW1VJa0rlwrRQkFkE0Bh2+YCZp9oap0\nTdQYrghRL14TNsdh4dt5A8LfhhcPxWif3aq6+tUc8BWTOgMMC97/c5tBvMB7\n/zrMCUX6VxNILm69zA+F4RMQEQ0RJuM3BMJ8WuVx1svfD5iCqt3ruZldO0RX\nwuE9AEZn6l6OXjd8gOYTudqSe39CzIcx37fY9d+LEkEl5xSZRiL1WvAjj9Ip\nWiOqjocFBWNi3vAtu6PMSulwiub1H26OlGYwnyg+bCrbXMr/0gFFVu1GtWfw\n/oDhbw==\n",
    "teacher_markdown": "## Teaching this Lesson\r\n\r\n:::details  [**Prompting Questions for Students**]\r\n\r\n- How do you grab an element, like a button, from the HTML? Direct students to lines 19 and 20 in `index.html`\r\n- Where in `script.js` should this happen? \r\n- How would you let the user know the button click was successful?\r\n\r\n:::\r\n\r\n## Preparing to Teach\r\n\r\n:::details  [**Walkthrough of the Code**]\r\n\r\n#### **1. Selects the Button**\r\n\r\n```javascript\r\nconst buttonTwo = document.getElementById(\"buttonTwo\");\r\n```\r\n\r\nThis line finds Button Two in the HTML so the program can interact with it.\r\n\r\n---\r\n\r\n#### **2. Selects the Text Area**\r\n\r\n```javascript\r\nconst textArea = document.getElementById(\"textArea\");\r\n```\r\n\r\nThis selects the part of the page that will be updated.\r\n\r\n---\r\n\r\n#### **3. Adds an Event Listener**\r\n\r\n```javascript\r\nbuttonTwo.addEventListener(\"click\"\r\n```\r\n\r\nThis tells the program to listen for a click on Button Two.\r\n\r\n---\r\n\r\n#### **4. Event Handler (What Runs)**\r\n\r\n```javascript\r\n() => {...}\r\n```\r\n\r\nThis function contains the code that runs when the button is clicked.\r\n\r\n---\r\n\r\n### **5. Updates the Page (Response)**\r\n\r\n```javascript\r\ntextArea.textContent = \"Button Two was clicked!\";\r\n```\r\n\r\nThis changes the text on the page when Button Two is clicked.\r\n:::"
  },
  "audit_log": "[{\"changed_at\":\"2026-03-26T16:30:43.443+00:00\",\"changed\":[\"cloned from \\\"ai-and-algorithmic-decisions-lesson2-level3-revised_2026\\\"\"],\"cloned_from\":\"ai-and-algorithmic-decisions-lesson2-level3-revised_2026\"},{\"changed_at\":\"2026-03-26 16:30:46 +0000\",\"changed\":[],\"changed_by_id\":18762,\"changed_by_email\":\"emma.wingreen+levelbuilder@code.org\"},{\"changed_at\":\"2026-03-26 18:09:42 +0000\",\"changed\":[\"teacher_markdown\"],\"changed_by_id\":18762,\"changed_by_email\":\"emma.wingreen+levelbuilder@code.org\"},{\"changed_at\":\"2026-03-26 18:11:24 +0000\",\"changed\":[\"teacher_markdown\"],\"changed_by_id\":18762,\"changed_by_email\":\"emma.wingreen+levelbuilder@code.org\"},{\"changed_at\":\"2026-03-26 18:11:57 +0000\",\"changed\":[\"teacher_markdown\"],\"changed_by_id\":18762,\"changed_by_email\":\"emma.wingreen+levelbuilder@code.org\"},{\"changed_at\":\"2026-03-26 20:01:06 +0000\",\"changed\":[\"teacher_markdown\"],\"changed_by_id\":18762,\"changed_by_email\":\"emma.wingreen+levelbuilder@code.org\"},{\"changed_at\":\"2026-03-26 20:02:58 +0000\",\"changed\":[\"teacher_markdown\"],\"changed_by_id\":18762,\"changed_by_email\":\"emma.wingreen+levelbuilder@code.org\"},{\"changed_at\":\"2026-03-26 20:04:56 +0000\",\"changed\":[\"teacher_markdown\"],\"changed_by_id\":18762,\"changed_by_email\":\"emma.wingreen+levelbuilder@code.org\"}]"
}]]></config>
</Weblab2>
