<Weblab2>
  <config><![CDATA[{
  "game_id": 74,
  "created_at": "2026-01-06T20:30:44.000Z",
  "level_num": "custom",
  "user_id": 19378,
  "properties": {
    "encrypted": "false",
    "display_name": "Debug Ordered List",
    "long_instructions": "<div class=\"no-pullthrough\" style=\"float: right; height: 250px; width: 40%; overflow-y: scroll; margin-left: 20px; font-size:14px\">\r\n\r\n</div>\r\n\r\n# Debug Ordered List\r\n\r\nThere are some issues with this page's list. Can you fix them?\r\n\r\n# Do This\r\n\r\n1) Find and fix the problems that are causing the bugs.\r\n",
    "bubble_choice_description": "Use your debugging skills to figure out why the list is not showing up correctly.",
    "thumbnail_url": "https://images.code.org/0ebf696af68df01fdc20b3eed5631d41-debug list.png",
    "submittable": "false",
    "disable_edit_run_for_submission": "false",
    "hide_share_and_remix": "true",
    "widget_view": "false",
    "initial_view_mode": "split",
    "ai_tutor_mode": "engineer",
    "predict_settings": {
      "isPredictLevel": false,
      "solution": "",
      "questionType": "freeResponse",
      "placeholderText": "",
      "multipleChoiceOptions": [
        ""
      ],
      "freeResponseHeight": 50,
      "codeEditableAfterSubmit": false
    },
    "start_sources": {
      "folders": {
      },
      "files": {
        "1": {
          "id": "1",
          "name": "index.html",
          "language": "html",
          "contents": "<html>\n<head>\n</head>\n<body>\n  <h1>Top 10 Most Popular Dog Names This Year</h1>\n  <li>\n  ol>Luna</ol>\n  <ol>Charlie</ol>\n  <ol>Bella</ol>\n  <ol>Daisy</ol>\n  <ol>Milo</ol>\n  <ol>Lucy</ol>\n <ol>Cooper</ol>\n  <ol>Bailey</ol>\n  <ol>Teddy</ol>\n  <ol>Max</ol>\n  </li>\n  </body>\n</html>\n",
          "active": true,
          "folderId": "0"
        }
      },
      "openFiles": [
        "1"
      ]
    },
    "encrypted_exemplar_sources": "Dn7HQlwz0pFFO6c3d2DdXB/55clGnnwQzLWAr3sovMrWt2HFvH/UaEd1Aw6m\nH7NPCh2Lr52063tDqEoStRSedn5LQYmzKopHnMdxEddzMa1ry9pfnBII8zb7\nMD3Gw+QxEX86iJuKhBFDqXvjC26WIR0dnDES221G1n9EocbLnjbVCBtUgcJg\n3L3gqlakkSGudXEJjrVpotbV1Tb3aRJQ3j50JAuzlR1P97jNqDlU6x8fF+A7\nyurrdzWIJ/J6KirMk4Dy23FFjHrHCy2++U9WcmvxPm3xwIvLQhfAoCbf1aRI\nsN/gXhr/KXy3iV90Vem+6pUvZRFoVizIP8ZBmhOm2Y/U9b2oJt0IuxyQzvSG\n4eBMi2XMhBmuuru76EIpGJvGYwpt2FKo84tyRTDG/v3oGJzxEdFOudhZTvI0\n/l4dw9uiRTeFaZR+UAbf+XfYCdIbHpQUq2SCLkwUIQySLyFS5rW+e1clTn2t\nK/azMU5cMZXkESTe6zDF4Zocpnl8gkOEGcyGZkKTQJSm9Yr81Um5atdeDga8\nErPLBihPUt0S4q4qFO2ehVdmIkT+KVW5QEiPh3zmaeXJj8lmr88b0zzQ3bRW\nP5QKiJ5JsXBW/v8undASx4/vbf2P629MJMlWTubDqAQHFsezziOSYa08/I7v\nQ1LWis/fXaqBjomUyIUUaDgBZ1BgybIgGHne/baumASZHplyH8RALQBJVtmB\n8zIypA==\n"
  },
  "published": true,
  "audit_log": "[{\"changed_at\":\"2026-01-06 20:30:53 +0000\",\"changed\":[],\"changed_by_id\":19378,\"changed_by_email\":\"cody.diliberto@code.org\"},{\"changed_at\":\"2026-01-06 20:31:13 +0000\",\"changed\":[],\"changed_by_id\":19378,\"changed_by_email\":\"cody.diliberto@code.org\"},{\"changed_at\":\"2026-01-06 20:31:34 +0000\",\"changed\":[],\"changed_by_id\":19378,\"changed_by_email\":\"cody.diliberto@code.org\"},{\"changed_at\":\"2026-01-06 20:31:51 +0000\",\"changed\":[],\"changed_by_id\":19378,\"changed_by_email\":\"cody.diliberto@code.org\"}]"
}]]></config>
</Weblab2>
