<Weblab2>
  <config><![CDATA[{
  "published": true,
  "game_id": 74,
  "created_at": "2026-06-05T21:31:49.000Z",
  "level_num": "custom",
  "user_id": 22366,
  "properties": {
    "start_sources": {
      "folders": {
      },
      "files": {
        "3": {
          "id": "3",
          "name": "script.js",
          "language": "js",
          "contents": "const checkIns = [\n  {\n    student: \"Maya\",\n    teamCode: \"B\",\n    checkInBlock: \"AM\",\n    pointsEarned: 18\n  },\n  {\n    student: \"Jordan\",\n    teamCode: null,\n    checkInBlock: \"PM\",\n    pointsEarned: 21\n  },\n  {\n    student: \"Avery\",\n    teamCode: \"G\",\n    checkInBlock: null,\n    pointsEarned: 19\n  },\n  {\n    student: \"Luis\",\n    teamCode: \"R\",\n    checkInBlock: \"AM\",\n    pointsEarned: null\n  }\n];\n\nshowCheckInCards(checkIns);\n",
          "folderId": "0",
          "active": true
        },
        "4": {
          "id": "4",
          "name": "notes.md",
          "contents": "For the Check-In Records dataset\n* What values did AI Tutor fill in? Do they seem reasonable? Why or why not?\n\n\n* Were there any values AI Tutor filled in that surprised you?\n\n\n* What information do you think AI Tutor used to make its guesses?\n\n\n",
          "folderId": "0",
          "active": false
        },
        "5": {
          "id": "5",
          "name": "index.html",
          "contents": "<!DOCTYPE html>\n<html>\n  <head>\n    <title>Missing Data and Labels</title>\n    <link rel=\"stylesheet\" href=\"style.css\">\n  </head>\n  <body>\n    <main class=\"layout\">\n      <section>\n        <h2>Check-In Records</h2>\n        <div id=\"check-in-records\" class=\"card-grid\"></div>\n      </section>\n    </main>\n\n    <script src=\"helpers.js\" defer></script>\n    <script src=\"script.js\" defer></script>\n  </body>\n</html>\n",
          "folderId": "0",
          "active": false
        },
        "6": {
          "id": "6",
          "name": "style.css",
          "contents": "body {\n  font-family: Arial, sans-serif;\n  margin: 0;\n  padding: 32px;\n  background: #eef2f7;\n  color: #222;\n}\n\n.layout {\n  max-width: 1000px;\n  margin: 0 auto;\n  display: grid;\n  grid-template-columns: 1fr 1fr;\n  gap: 24px;\n}\n\nsection {\n  background: #ffffff;\n  border: 1px solid #d7deea;\n  border-radius: 16px;\n  padding: 24px;\n  box-shadow: 0 8px 24px rgba(31, 41, 55, 0.08);\n}\n\nh2 {\n  margin: 0 0 18px;\n  font-size: 1.3rem;\n  color: #1f2937;\n}\n\n.card-grid {\n  display: grid;\n  gap: 14px;\n}\n\n.card {\n  background: #f9fafb;\n  border: 1px solid #e1e7ef;\n  border-radius: 12px;\n  padding: 16px;\n}\n\n.card p {\n  margin: 8px 0;\n  line-height: 1.4;\n}\n\n.label {\n  font-weight: bold;\n  color: #374151;\n}\n\n.missing {\n  color: #9a3412;\n  font-style: italic;\n}\n\n@media (max-width: 800px) {\n  body {\n    padding: 20px;\n  }\n\n  .layout {\n    grid-template-columns: 1fr;\n  }\n}",
          "folderId": "0",
          "active": false
        },
        "7": {
          "id": "7",
          "name": "helpers.js",
          "contents": "function showValue(value) {\n  if (value === null) {\n    return \"<span class='missing'>Missing data</span>\";\n  }\n\n  return value;\n}\n\nfunction showCheckInCards(checkIns) {\n  const checkInRecords = document.querySelector(\"#check-in-records\");\n\n  for (let i = 0; i < checkIns.length; i++) {\n    checkInRecords.innerHTML += `\n      <div class=\"card\">\n        <p><strong>Student:</strong> ${showValue(checkIns[i].student)}</p>\n        <p><strong>Team Code:</strong> ${showValue(checkIns[i].teamCode)}</p>\n        <p><strong>Check-In Block:</strong> ${showValue(checkIns[i].checkInBlock)}</p>\n        <p><strong>Points Earned:</strong> ${showValue(checkIns[i].pointsEarned)}</p>\n      </div>\n    `;\n  }\n}",
          "folderId": "0",
          "active": false
        }
      },
      "openFiles": [
        "3",
        "4"
      ]
    },
    "encrypted_exemplar_sources": "Dn7HQlwz0pFFO6c3d2DdXB/55clGnnwQzLWAr3sovMr0g1yZX0Q26M4B3DGa\n2qcJbMI5iiqTunRwx5bm9b8FjPO3moygKWlL2cH6wXcJJ8n11aCltj8YTgrk\nHyTmexAoQpjJ376xgNWgQhyOyNZr3YPVJX785V1725NlAj403ioPvBTaZMtl\nU39jX2NF7GIw8r8yawq1YTVkUzIrdftzfn7QtZER3As3ej50E/e7gqnuj0Mi\ni4BPDQRR3GfliKAhWcj8eIX4Sk6JhfNFU1uAgq3/jse1+705Ha0CIzbghYA1\nw6VK3U3gouw///x/kJdf4uKtCX2yjptOLgyRQ0lHgIiA9bAgF4RoDcyGbkVH\nY6BmG44lkh+TSx+Vfj6j8kZErP0P7dx5Ato8P6vl1i9Okdoa1iQkY3jWFvii\nZE3gBLqJu3+XyrD7VErhACPDxEdZtx32svuXTOmye1iX8dL8M/As08CLX7ex\nJXdN78KKM8bnkbZdXZTdNwU2ZbuR2gMHogyWeWmEo17DKCstAmEEvAfMXgpn\nh6B8LLYkQBKTDfB1QPt9dzHdKjwA6XSEw3mBLu8uoP33RTM0/G8+c8Z7eP5K\nEONxiKBJ/jNK11MqelxvsdpbmaWWtSq968EYMa7oI6acbHxWu8cBVHhfLN+f\nWxjbh3tuM9/sDGLayctE9/Gf1HDvMvjcU0TVFF4hy9TeyB6VfLGdezMdW8ZB\nrx0lmidy/s3TFoulNC5UvaDdBI/XRPIYoW4DeQaQtd23+0By11gSRYornuTG\nGDBwCi5NPXPCBf1FrFeQrdQ1oGA/y0HuunXEMxj47dM9t4vaXhRQloay2tMf\nOteCH36XI8S/bPWEyp4LQrYl5Fv6D2oRAlOWD1FrJuAz5HDb+RCd8wNjR6g1\nEI15YR8PwM7fLcMXSy3vb9XpmZnC/lJ73dgIZ7qjKD1s23fDh2MWD3H1Jf7i\nWIW0GDKApebshdNapySqVpm+qbIG+SGMvLu7XDGUcCHkwSUwLEpGAQz19ixS\nER7dxpxSuXGCgWjfglFKh7MhRSOYBgFuAVLkdlm9EXJfC4LQfoUQQQCZfJWG\nzbmeILCCFJ39aRkSEFj/tEdhlq1jbIQP7aAbRKPUVrHkogBccp7geKGZ8F5K\nBasMpZ8J4fzEzHPTNxaQ8Dt2F67kkXGlluAvOsTRtWYcCBU2CLq8qCYIkuyf\nrdECFD6pCzqFnXpKKcCpnmHx41vnbBZMAoNOQZU1jTAU8iq16K80nJjF+T4t\nBXqteJuVzYhBViqnk8rNy+tzkIveTSH9fCScMUTG8uVVMXuYhQWgCn2DGaOr\nrBeTwYTTChxlikM68d8J/NOA32f8WvM+a2GD189YqgUAdEkSQrvnnMyc+UYY\nqzTfSYojGhSebc26uOv7eejxfw2+0ildvyHWbLP6K/FhmqqAuGPFJM5Dmcwv\n9NXcrN+bf/O5EuIMnt7BUP+DMqBsWdjzdh0f8GI4JslwWZ3BFuB64MlVYC92\ntLug694O4ETkOK/2A2lmGh8voEcHvN+5MP1f7lh2pzTrUzStD1sMmxhtxjYQ\nSgBfchTN9Hu6wF+BWR/aynQhPYV7/1j6ZU19FK0OSrJjnUcP6Q3ZoQjGXFAa\nVDrZ4v5FEd09BSixnTc0DRmjpXrrqQLZo1WiHHoUQsn5/FzbT4mR444FFypm\nVoOieCbFmn1kGGfzVHSFUgqoGjVHRaQ5du2FAQlI9LjKrIiL/TbXaJp3nYu8\n6gIvszpJsfSLL71yHNt44ut3BUNbDULEs0gFB0xsmH4gXxTj/dIOjDy/UTjB\nOReQ6o+6DK9GJZlO8GOheWmPnRzX4fqA0lJJqpmeLuNP+BhtKpG/msBntjwJ\n0AH/Qy6nTBLyEApi9Q==\n",
    "encrypted": "false",
    "long_instructions": "## Explore Missing Data -- Labeled Dataset\r\n\r\n**Goal:** Explore how AI handles missing values when data has clear field labels.\r\n\r\n---\r\n\r\n1. Look at the Check-In Records dataset in `script.js`. Notice which values are missing.\r\n2. Ask AI Tutor to fill in the missing values. Write a prompt that gives AI Tutor enough context to make reasonable guesses.\r\n3. Record your observations in `notes.md`.\r\n\r\n",
    "submittable": "false",
    "hide_share_and_remix": "false",
    "disable_edit_run_for_submission": "false",
    "widget_view": "false",
    "initial_view_mode": "code",
    "ai_tutor_mode": "engineer",
    "predict_settings": {
      "isPredictLevel": false,
      "solution": "",
      "questionType": "freeResponse",
      "placeholderText": "",
      "multipleChoiceOptions": [
        ""
      ],
      "freeResponseHeight": 50,
      "codeEditableAfterSubmit": false,
      "allowMultipleAttempts": false
    },
    "name_suffix": "_2026",
    "offer_browser_tts": "false",
    "require_edit_to_continue": "false",
    "ai_tutor_prompt_settings": {
      "answerTypes": [
        "buildJavaScript"
      ],
      "answerTypeCustomizations": {
        "buildJavaScript": "Your job is to fill in the missing values when prompted by the student.\nWhen filling in missing values:\nMake reasonable guesses based on the context provided by the field names and existing values in the dataset.\nFill in each missing value directly in the dataset.\nDo not explain your reasoning unless the student asks.\nDo not tell the student what you used to make your guesses — let them figure that out.\n"
      }
    }
  },
  "audit_log": "[{\"changed_at\":\"2026-06-05T21:31:49.383+00:00\",\"changed\":[\"cloned from \\\"iterating-with-ai-lesson1-level1-v1-2026\\\"\"],\"cloned_from\":\"iterating-with-ai-lesson1-level1-v1-2026\"},{\"changed_at\":\"2026-06-05 21:45:42 +0000\",\"changed\":[\"name\",\"long_instructions\",\"ai_tutor_prompt_settings\"],\"changed_by_id\":19378,\"changed_by_email\":\"cody.diliberto@code.org\"},{\"changed_at\":\"2026-06-05 21:48:12 +0000\",\"changed\":[\"long_instructions\"],\"changed_by_id\":19378,\"changed_by_email\":\"cody.diliberto@code.org\"},{\"changed_at\":\"2026-06-05 21:51:26 +0000\",\"changed\":[\"start_sources\"],\"changed_by_id\":19378,\"changed_by_email\":\"cody.diliberto@code.org\"},{\"changed_at\":\"2026-06-05 21:51:26 +0000\",\"changed\":[],\"changed_by_id\":19378,\"changed_by_email\":\"cody.diliberto@code.org\"},{\"changed_at\":\"2026-06-05 21:51:26 +0000\",\"changed\":[],\"changed_by_id\":19378,\"changed_by_email\":\"cody.diliberto@code.org\"},{\"changed_at\":\"2026-06-05 21:51:26 +0000\",\"changed\":[],\"changed_by_id\":19378,\"changed_by_email\":\"cody.diliberto@code.org\"},{\"changed_at\":\"2026-06-05 21:55:39 +0000\",\"changed\":[\"start_sources\"],\"changed_by_id\":19378,\"changed_by_email\":\"cody.diliberto@code.org\"},{\"changed_at\":\"2026-06-05 21:55:39 +0000\",\"changed\":[],\"changed_by_id\":19378,\"changed_by_email\":\"cody.diliberto@code.org\"},{\"changed_at\":\"2026-06-05 21:55:39 +0000\",\"changed\":[],\"changed_by_id\":19378,\"changed_by_email\":\"cody.diliberto@code.org\"},{\"changed_at\":\"2026-06-05 22:01:23 +0000\",\"changed\":[],\"changed_by_id\":19378,\"changed_by_email\":\"cody.diliberto@code.org\"},{\"changed_at\":\"2026-06-05 22:01:23 +0000\",\"changed\":[],\"changed_by_id\":19378,\"changed_by_email\":\"cody.diliberto@code.org\"},{\"changed_at\":\"2026-06-05 22:01:23 +0000\",\"changed\":[],\"changed_by_id\":19378,\"changed_by_email\":\"cody.diliberto@code.org\"},{\"changed_at\":\"2026-06-05 22:01:23 +0000\",\"changed\":[],\"changed_by_id\":19378,\"changed_by_email\":\"cody.diliberto@code.org\"},{\"changed_at\":\"2026-06-05 22:01:54 +0000\",\"changed\":[],\"changed_by_id\":19378,\"changed_by_email\":\"cody.diliberto@code.org\"},{\"changed_at\":\"2026-06-05 22:11:01 +0000\",\"changed\":[\"ai_tutor_prompt_settings\"],\"changed_by_id\":19378,\"changed_by_email\":\"cody.diliberto@code.org\"},{\"changed_at\":\"2026-06-05 22:19:50 +0000\",\"changed\":[\"long_instructions\",\"ai_tutor_prompt_settings\"],\"changed_by_id\":19378,\"changed_by_email\":\"cody.diliberto@code.org\"},{\"changed_at\":\"2026-06-05 22:31:51 +0000\",\"changed\":[\"start_sources\"],\"changed_by_id\":19378,\"changed_by_email\":\"cody.diliberto@code.org\"},{\"changed_at\":\"2026-06-05 22:31:51 +0000\",\"changed\":[],\"changed_by_id\":19378,\"changed_by_email\":\"cody.diliberto@code.org\"},{\"changed_at\":\"2026-06-05 22:32:39 +0000\",\"changed\":[\"start_sources\"],\"changed_by_id\":19378,\"changed_by_email\":\"cody.diliberto@code.org\"},{\"changed_at\":\"2026-06-05 22:32:39 +0000\",\"changed\":[],\"changed_by_id\":19378,\"changed_by_email\":\"cody.diliberto@code.org\"},{\"changed_at\":\"2026-06-05 22:32:39 +0000\",\"changed\":[],\"changed_by_id\":19378,\"changed_by_email\":\"cody.diliberto@code.org\"},{\"changed_at\":\"2026-06-05 22:32:46 +0000\",\"changed\":[],\"changed_by_id\":19378,\"changed_by_email\":\"cody.diliberto@code.org\"},{\"changed_at\":\"2026-06-05 22:32:46 +0000\",\"changed\":[],\"changed_by_id\":19378,\"changed_by_email\":\"cody.diliberto@code.org\"},{\"changed_at\":\"2026-06-05 22:33:33 +0000\",\"changed\":[\"start_sources\"],\"changed_by_id\":19378,\"changed_by_email\":\"cody.diliberto@code.org\"},{\"changed_at\":\"2026-06-05 22:33:33 +0000\",\"changed\":[],\"changed_by_id\":19378,\"changed_by_email\":\"cody.diliberto@code.org\"},{\"changed_at\":\"2026-06-05 22:33:33 +0000\",\"changed\":[],\"changed_by_id\":19378,\"changed_by_email\":\"cody.diliberto@code.org\"},{\"changed_at\":\"2026-06-05 22:33:33 +0000\",\"changed\":[],\"changed_by_id\":19378,\"changed_by_email\":\"cody.diliberto@code.org\"},{\"changed_at\":\"2026-06-05 22:33:33 +0000\",\"changed\":[],\"changed_by_id\":19378,\"changed_by_email\":\"cody.diliberto@code.org\"},{\"changed_at\":\"2026-06-05 22:33:33 +0000\",\"changed\":[],\"changed_by_id\":19378,\"changed_by_email\":\"cody.diliberto@code.org\"},{\"changed_at\":\"2026-06-05 22:33:34 +0000\",\"changed\":[],\"changed_by_id\":19378,\"changed_by_email\":\"cody.diliberto@code.org\"},{\"changed_at\":\"2026-06-05 22:33:34 +0000\",\"changed\":[],\"changed_by_id\":19378,\"changed_by_email\":\"cody.diliberto@code.org\"},{\"changed_at\":\"2026-06-05 22:33:34 +0000\",\"changed\":[],\"changed_by_id\":19378,\"changed_by_email\":\"cody.diliberto@code.org\"},{\"changed_at\":\"2026-06-05 22:33:34 +0000\",\"changed\":[],\"changed_by_id\":19378,\"changed_by_email\":\"cody.diliberto@code.org\"},{\"changed_at\":\"2026-06-05 22:38:18 +0000\",\"changed\":[\"long_instructions\"],\"changed_by_id\":19378,\"changed_by_email\":\"cody.diliberto@code.org\"},{\"changed_at\":\"2026-06-05 22:51:07 +0000\",\"changed\":[\"long_instructions\",\"ai_tutor_prompt_settings\"],\"changed_by_id\":19378,\"changed_by_email\":\"cody.diliberto@code.org\"},{\"changed_at\":\"2026-06-05 22:53:30 +0000\",\"changed\":[\"start_sources\"],\"changed_by_id\":19378,\"changed_by_email\":\"cody.diliberto@code.org\"},{\"changed_at\":\"2026-06-05 22:53:30 +0000\",\"changed\":[],\"changed_by_id\":19378,\"changed_by_email\":\"cody.diliberto@code.org\"},{\"changed_at\":\"2026-06-05 22:53:30 +0000\",\"changed\":[],\"changed_by_id\":19378,\"changed_by_email\":\"cody.diliberto@code.org\"},{\"changed_at\":\"2026-06-05 22:53:30 +0000\",\"changed\":[],\"changed_by_id\":19378,\"changed_by_email\":\"cody.diliberto@code.org\"},{\"changed_at\":\"2026-06-05 22:53:30 +0000\",\"changed\":[],\"changed_by_id\":19378,\"changed_by_email\":\"cody.diliberto@code.org\"},{\"changed_at\":\"2026-06-05 22:53:31 +0000\",\"changed\":[],\"changed_by_id\":19378,\"changed_by_email\":\"cody.diliberto@code.org\"},{\"changed_at\":\"2026-06-05 22:53:31 +0000\",\"changed\":[],\"changed_by_id\":19378,\"changed_by_email\":\"cody.diliberto@code.org\"},{\"changed_at\":\"2026-06-05 22:53:31 +0000\",\"changed\":[],\"changed_by_id\":19378,\"changed_by_email\":\"cody.diliberto@code.org\"},{\"changed_at\":\"2026-06-05 22:53:31 +0000\",\"changed\":[],\"changed_by_id\":19378,\"changed_by_email\":\"cody.diliberto@code.org\"},{\"changed_at\":\"2026-06-05 22:53:31 +0000\",\"changed\":[],\"changed_by_id\":19378,\"changed_by_email\":\"cody.diliberto@code.org\"},{\"changed_at\":\"2026-06-05 22:53:42 +0000\",\"changed\":[],\"changed_by_id\":19378,\"changed_by_email\":\"cody.diliberto@code.org\"},{\"changed_at\":\"2026-06-05 22:53:42 +0000\",\"changed\":[],\"changed_by_id\":19378,\"changed_by_email\":\"cody.diliberto@code.org\"},{\"changed_at\":\"2026-06-09 16:54:13 +0000\",\"changed\":[\"ai_tutor_prompt_settings\"],\"changed_by_id\":18602,\"changed_by_email\":\"angelina+levelbuilder@code.org\"},{\"changed_at\":\"2026-06-09 17:04:11 +0000\",\"changed\":[\"ai_tutor_prompt_settings\"],\"changed_by_id\":18602,\"changed_by_email\":\"angelina+levelbuilder@code.org\"},{\"changed_at\":\"2026-06-09 20:52:00 +0000\",\"changed\":[\"long_instructions\",\"ai_tutor_prompt_settings\"],\"changed_by_id\":18602,\"changed_by_email\":\"angelina+levelbuilder@code.org\"},{\"changed_at\":\"2026-06-09 20:55:07 +0000\",\"changed\":[\"start_sources\"],\"changed_by_id\":18602,\"changed_by_email\":\"angelina+levelbuilder@code.org\"},{\"changed_at\":\"2026-06-09 20:55:15 +0000\",\"changed\":[],\"changed_by_id\":18602,\"changed_by_email\":\"angelina+levelbuilder@code.org\"},{\"changed_at\":\"2026-06-09 20:57:29 +0000\",\"changed\":[\"ai_tutor_prompt_settings\"],\"changed_by_id\":18602,\"changed_by_email\":\"angelina+levelbuilder@code.org\"},{\"changed_at\":\"2026-06-09 21:14:04 +0000\",\"changed\":[\"long_instructions\"],\"changed_by_id\":18602,\"changed_by_email\":\"angelina+levelbuilder@code.org\"}]"
}]]></config>
</Weblab2>
