<Javalab>
  <config><![CDATA[{
  "game_id": 68,
  "created_at": "2021-07-20T17:37:25.000Z",
  "level_num": "custom",
  "user_id": 9271,
  "published": true,
  "audit_log": "[{\"changed_at\":\"2021-07-20T17:37:25.378+00:00\",\"changed\":[\"cloned from \\\"CSA U3L2-L7a Exemplar\\\"\"],\"cloned_from\":\"CSA U3L2-L7a Exemplar\"},{\"changed_at\":\"2021-07-20 17:37:30 +0000\",\"changed\":[\"serialized_maze\"],\"changed_by_id\":9271,\"changed_by_email\":\"jamila@code.org\"},{\"changed_at\":\"2021-08-04 18:25:27 +0000\",\"changed\":[\"long_instructions\",\"serialized_maze\"],\"changed_by_id\":9271,\"changed_by_email\":\"jamila@code.org\"},{\"changed_at\":\"2021-08-09 19:59:50 +0000\",\"changed\":[\"start_sources\"],\"changed_by_id\":9271,\"changed_by_email\":\"jamila@code.org\"},{\"changed_at\":\"2021-08-09 20:01:13 +0000\",\"changed\":[\"start_sources\"],\"changed_by_id\":9271,\"changed_by_email\":\"jamila@code.org\"},{\"changed_at\":\"2021-08-09 20:03:01 +0000\",\"changed\":[\"start_sources\"],\"changed_by_id\":9271,\"changed_by_email\":\"jamila@code.org\"},{\"changed_at\":\"2021-08-09 20:03:29 +0000\",\"changed\":[\"start_sources\"],\"changed_by_id\":9271,\"changed_by_email\":\"jamila@code.org\"},{\"changed_at\":\"2021-08-12 00:37:41 +0000\",\"changed\":[\"start_sources\"],\"changed_by_id\":9271,\"changed_by_email\":\"jamila@code.org\"},{\"changed_at\":\"2021-08-12 00:38:32 +0000\",\"changed\":[\"long_instructions\",\"serialized_maze\"],\"changed_by_id\":9271,\"changed_by_email\":\"jamila@code.org\"},{\"changed_at\":\"2021-08-12 00:39:13 +0000\",\"changed\":[\"serialized_maze\",\"thumbnail_url\",\"encrypted_examples\"],\"changed_by_id\":9271,\"changed_by_email\":\"jamila@code.org\"}]",
  "encrypted_properties": "nPHaFdV/8/su3hN43oNb+5UWN67f8mw0sc5CE6S9Ie3oG+iE2u+DUuITxPmq\n7vRl/mBTuiVn7AFyvebWWo1YrrZOKvrMssz1aJsn1XUqiw1D44u0QJ8kyC6a\nzkwuyaWBPkj1gBmFREBziSxgRCM5QAkqKCJYdaWp810UHWl3O2wkwHiSxzMv\nU+yr/vbnJyvmOLT/nlurvj6ue/FbgD0UfxrifNyng0ac9RqigXuQI+Lc9Z5V\nLC3iqCwBpi7xymKSFZayZrDDanHVstP6Hjjs9+w7o/eRTAY/tv4mMcv3Bp1X\n32fCch/at8ZGLH18Z3z5IT6w1Cbje46M54p68B6iS0v9q7vSihwBetu164BB\nHUPUZyiuJ215zG7y3jgTjAyFFxl+gAFTxYk5m31O+XDzsrsfF9H6+jxUmKfx\nP1fJ3+QLasekRgwhk1VsSKN+E+XgU0AjeNG1gndnkQtac3820f+NMB0kKtcs\nZv2OKh1sLjVlfDVazBvaldlKGVQGNVIaFNnSjzCpZdEOQWPHls1LA5EPwznY\ng6jc2s92xsyVvzWKUDxDD/m2xxdHbSJAS9DJJ3TFxpiSM41S7IM1xUonvOLf\n+jm4Mx6sPFdy50IVIZyfG2P86Zl9rH9cFQ7Pnu8g0unJ0ZikRwnqncr35cZs\nzS+tP+1mMiKETcFqItD14yL4uAnajycr6uFnoYtJDb1cfBm4PUr2keP6ztyl\nBTad4bJR7WfPbxla1593OuidOyH76N7unl+B/ZipXDTb1i6ReaI+X/wt1A/q\nvaNcghyqBWNlznkBybCVtAFgi1xp0ANW45sCTdwaxmnMvcucUUM4anzyzUIy\n6lVM9kAPw5J40li94elt+EPfikZZT/ARk/Nqh36S3keuFHizQQE+ZTIx5dst\nBojChSLiUGGr/9+nO6Vy1uWk1C+2x3YnKSZG3MnWdc8Ti4Zpf5dRB1aI74W2\naH/Ahg86byrRl77RRf42GrjUGLndb4V4qp6rFY+Tashbe4V7ndgeRovwDDxQ\ngOK7zsoMK/7Yl2LuWdUDi92GwYsxPGWRu8BD4cQERNO6twNEIJixdL4sfctt\n/IsP2kcAZLfzGxkAVTAjTjiVaci0hrGBoaLhiJroRL1cC8xdQJ2cNAwHWAZc\nM61vCejyAzHuFPmNrkShwMC9FOGvVlt+5hIN/GiwmLajAb60WRDB51GiYjDC\nsD1OK4TZqzxMjB3dxVrttPiYcIURNLbIpiEYVwXKtVjsAdTGTFiHzhn1zhwd\nMzcPPPi+xMuYt0D9yM8eWZbEx5GTnuvU8x+SNLJhGIN+4LpHDcNzmfjXzJ/M\nEray2QhVXWvgklDTmdb88Q6eba+j0/8tShw8nQpyaTFLxlnml2HxRRlGLYR7\nkMVo6LHxFI6rsb5jsmuAau+ODWPE47SrNuEj8PTJfUdkJ/aIP+SUC85rNAcP\nt3xOtgK6trjdHOfc+K3hEdkbTPbBJrodwut2WGtDbHH8An7BcdrV1Mq1FLs1\n/Ba3ivhB/vsLqVZwiA/9faer/JpwAIHaNRupdoEX9TuuamIAlEC3CKNrS0V0\nCeS6XYSWzJ8f9hujHd2EsH8lL58FYcTFgnjYmsUvKxr59gh60AThZIBfdAof\n4DNQh2dw5utBBWXiVAFdKy/+ZmcwBLkoujWLyUEQPy3eDDstFKkY9qthI1nS\nCAUvht01yogvZlPKMq/oeOxVRYI3FsrESMSzjuBQslbzwGrdYVi4zCqisoug\ncmvUi1G2wcPxq4hIs0n2UTavBr9b8r5YIinft99N4H5PQyzDg+mqczFzP3QG\ngdkL6/mlYwrK0hTdcwRHE/0biVoVbOmUoIHKE7fA4gSCYHozR8ZMaFswh9of\nOk9sb/oNo4ykBZ/q43PrXN7ZxA2P41doCVstk+QFiZ4DDAMqy1pYnSET/Rxs\n136C1Ge4OBOPLfgmVVLyqHclFGVuPtEFgOjH9h7+nENreW3rIFIX92BnWECV\n5FXKIW8N6X49GWOLsdS2qgZ7fkYAU6p93IiXaswo9NLWmuCjUrlWzzG4L+4L\nZ6bBy3pLefuKYh8rUYwB8/TAzxtvdv45fBOKwuAnyC2/Qo7bispLCQF4Ui4f\nz8V7BzuBSvy38OYZdW42f5V0ISFY8KFKXXq/xp5RZT5VQ3ybOpNWkajI8Mhw\n3SttZglqqCUzHzKGtDWnGFpJ2Q9iC1optl+MLsUsJCWTV2Q/3Tt3YiAZ4QW9\nh+lsZTtFOBzfP6l50hRtw1wE/8i+kS2fsBMja2FVN4f13S1FXCRzviefXaaa\n7EFAQFCjSn9axOkTvFQkSweKm1gYGpHeDePsbUa3aWllDBW2G4WkLb1qrXJg\nPAZU9nFDcsUHpMyHHZh55mrr7e3ySsEhBOcri+cFZUfPIYf3ShaQpy0mDZW+\nN6kEF0/qwyhT6IJ2abnjCcI1JCgsOgumbJUQKtkrAMjAggMGr66NEyZp+E+q\n9UkeH5WnQdkP7Lq1OEhGI6F59/tZOERrHrWqVPGIzAzydqetje5SWaxtrueH\nV8pKwuCUl0uizejT5NpLVd8tpcA6+5it3pA9EJjTndd2QVdnHvxK2TyVWY1u\n5DXvUJ+kfLH0Eju5Bji/hgxBVhCguQ1ulUVzaEwV9QACC2RXzXyU5MufmYTW\ngsrLSzVVvKdbaJ+N1az9V5qIMCEe4zizWkZgEKqfmQPKbw28X4TQ8M5I6ZCI\ntGPSHugeKj1aWZ/+oGpDb4OAT5SmK2lMzK2E8zjK/pNZfXv8gI7YHOfIX2ly\nrpRVcv+3DBw2KOt1p1g5q4HkJ+AenzR/iQ2at93hKqukYlhi8h5QAS5dDoWW\nusHM9i6O5l6BtaAvvZSM0wbEY7tGHZQd1dNz9L2LGar3hAaoehQzxJ7IPsAP\nc39dihiQjkNtrkWU3sFE4oa/QoI4YXXizjqMhWuXkuHaFdYwIS+oz7ENFEdd\nXOe08mLpP+4YBO/bSKKd/q3r+QBUbiVBr0Aa5oQrwRfLYAXTtLVR2ZoH+Vw1\nl949vqR5Hb2qUVRbRFxF+MHhjJ437jCmUMIi2AiWbNsINVVgy+jHQ6+L3JGq\nrKtBy6TESNXqxHmCEJOIubfkvRnptrT9r3GmTB0LuF60Lj8yILEc6f5HkBCl\nLl0OIIzx/zG+z4qLnOLzJTnNRHeKWlAEjMdJyF/2eY16iXbVJ0CIuwd7oSNG\n97FI2xcQpCou621wPaF8QUxgAaOTQEpiu7gL/+0sPHeoFyuQIVExkrBJBlU4\nLPcXBNXAeuW+0HpJG4/r4nUDkKLQzCOVnkB1PxfDuhtkB+xJuv3dFmKyjxn/\nlegMxEMFg1eyJ3nxQG/p3uGWLekxj0FHcqaIhatREQaHusp0mq6PDB6fRNqN\nEK9KSf7uqDqTmlij+Ahn1YrbCuhUVGt0QlI4JVn+AXMWzQD+3WlhebTcDuLK\nECV/dC6eCOUCtkPSSXVSHEBezBTcE/VfqlzArh2aiZNvAbKdMJmmLZ6YgUBo\nM1FzV3iwq4RRSbGBi0qEEQrIIa8eQxNzVkTEcEEQFAdPWiB9b5n37XYmDiYS\n08Ewq9xQ7vU1ogrIaRbMuSpeE/AmuyPYJuhYV8XucXEasPOblGh/7VPYENii\niMMJe/3CQ95kTzRnR1kL0DhnRqOFOKUn4d4cxNPp2fTDsGATNS2UzJa2bYwt\nIrM/i8R4PzpglNlwzM9TZ7iS4QAvF6Q42DmdpzCQm4ZX+uG8RxUkNAZd6duD\nK1o1KD6yHE1qYAMK3I8CdwuivKSDjycA386jTQAVX75AcLL7VAHJWlfNSGbP\nFLjAU8R9o6YhnfuZjjAaSRJLLRKOwlH+W99o50APt9eIaEMF+4MmHMIbVi/r\n6uRDsMDTmYMRHLniqVt3XwSCjkSjSxwCRxC5k/bXIrSC8f9MD+7Ksp7hgpLO\ncqt/Syg/lP6usWMn7HWvCAz5rnae1KqCKGxCYT3hwff/uB0siPT0JGBOcckc\nBWF5t/Jht2ANLIKcm7G2sJ0N1FWVnMrCV5OcZULPOVxkh471xpZvJ6re9Umd\nvFx78x+ytXLUE4ihkh+WqWG0ziIjykNtGrRH05QwgiV0hwH8MtBTk8WQp4uR\nLaTDSE0MwoQydC3cfc1nQogAlu59vT2E5xWA9nEFL5w8UHIZpNxWTzdmjdeI\nWyCCEemL2I6sWKIMuZbAR6SJYPuEI8j0VbfT0NecLs0gRlkUtJk2UwE6BtTf\n9EZBsQANAuScw/1yR/GfTgr5tB02HliCB0qejcAy4EcKC79wNDzcVp38mEOD\nNhGWTUB9i/3ZpxDcHWnI2c8zTwwyY61oycWMCEnfKY9L2W1e9+n3dRDci6ZE\nKFHWcADRAi1i2psEkutfwqC8YdkjcF+Y8H/P5URkxe1ji5YyB6xSyn4ZcnDj\nrf9escEosFziardA9q9WZtWvz4RMv9aUvWzT3aaMCBtCQI/DKVD/HYRsxTx2\nIZw8AMy1XhF7UHrbb1gWu//E8HFOKqgrGV+h3+Xagh+jIBFiXOU9yJBC6YKH\n+VictRXdutuKcfcvsvZCCuU447PI+mngxpHPdX21AsqbmrUWBSG+gTM7l4wI\nBT88XbQQEQ2FSJT0IfMYd0Cgnj6e6kzqxE0UzLueeX2DRQ2e9v1HFlmNM/vc\nVr1ZFfZ/Phc13tw+dZwZev8zMfobbtWRrkh43rHCq3mSRAO6AJiQiWLcxHUh\nWHV+qBYWInVXk4G+PX4gTD0h5bqXpYJNEOvcUoaSvgfSK+9Dad79QGxJ2Jfe\nP9+5iSqu0sB9WabaGy3Tx6/lO3oHIQSYacw0d4ljEJgDBUnpO5aVCPISfFW6\naHDuie5u2l3SCA6iecFClcpJ3F3MNCRpooKwdrnPwi/pySywNQOknEOD0lDO\nidIw/upbB+sfP++VVljDsyrSaIKLfs7HT9YF739O/CaUUIXphBAVnpVlhaDV\n9IktRrjFcplj44F+z+A0VrkYZcUuk2MefEbF8uNwh0rYSreWD1NYgqyOLv7B\n+EQr04xL4Q2RdJErhtR485ujdWLDludmWCt+VSjS5bWuoAmDvgamXjsxzX3u\n9rf6YGenkQwTeLonF2X5//KWMF3QL1L7VIEiwpc/KILY43K1WayBi/CGuXpd\nw1kNkeXCpltJsyUPecIUtZIMrNcjKoSjxAl31+/0PK46s14woMIk/Y/BAM++\nguQuo1cqvWGdoCoP5517Wq4Bn/SYekDBCp+TWq9uO/UUzuOUmAhZRs8IyGVE\nhyr9HUVgkIjHsbLBPi3ygoYjj2raLsfXlws31Mn0U500HVYz11YFkh+I6U8M\nS41n9eWvBkON+Hmlqqjm1E4K3WV2FmsHcqdhzzvGZ/PL9N1OdSqH3eZSAPLt\nxzbRJ0eeb6RSAI2dTQmItra2eC27PYiZJGEmlk2Ox+akXYNi/lqDSWQsOn9o\nynGDHNlidi48ib7qXoBkjmRDyXv2rxFgAcltoRrRtcWyYjkeDUoMiIPmswxT\nJrdyrzTYY/qVdFgGbJ7JNZ6K5dSlwwrAQOjWS1HMItTbTU4bt2zauLOtskPy\nEIXybOUngO/gWqrrlR9j91R9ursF8q1lQGhEC+fzFPcYUSwrdEasY+i1KoQW\nuVHwIyU+nk8UScELC5En5ScqBSfvH5BmylaoP5MMFvn3BfqCwmYo7GV8G2x4\nFrvjTK5NZw8Up9t5z1rLgSPdSooxsFGXxavf/6JSMNe+o8YixOjDGZI5/3Wd\nxBHIBnwx7DxfZB7GDWD9sTNkkYI9XWdtPNklUA3UF4YiujjupdZKPoHsdZVn\nY5wGnmAJib47vBxjg2sKHvmhoEDpptMGzQ97cFCRzEWM2qMNYa3JWnDQHQVJ\n56CflSpzdry+5doyKjKFjhEEMETa7XVs0abxhZjsVz+Qaxnag2lNbd+v/0x9\nxYFTmcmwM8mLrihyJcjHfoY+TBC5RzyclcLctnlzIcMQfM/tl8LFzEwr4aQL\nSWsC66Nyn5CBHhVKLqcNg2IVIjFsJz838g6umnwbPJboYRWMe8uFhGov8JdF\nXnpF1PBRZJZKDeYmLZuDN+tH7KVW1UJ663gDZU1unMbLO5Dh34LA6sMQs8Fh\ny32XP0YPFI7jeWkkK8M7ITPKIg08JwyjLs/2IKMfI3JfvYHQrux6tn3WqElW\nOSk/aEKjcL6RZRBeMmzucBZ8DOts4jOgv+1YwxRlZCqdNd6zsORot8eWXwU7\nG6HCBmRgXo45DC9s9HBlIBxEfEARJ4sCBBpQSY2eAQfZEDyExPLEzA3IH0dJ\nLrTgSY5lB1LjTzwvcyTW6F9zL3NhDJEAAfCIveEJGgPvfce6se8dMuzLNSbX\nI8o2wsI6oAl5PJnGwARI+b47lA5RR5tdvIonKz99ScAdV2XbqwPh02zB5kLx\nXS12Ibf22GsBcj6szWJkZb/1sUR+LAZW0SeB9LfDw2aylSEYgoHqir315tjn\njFDFlA/4zDPlp8WbTqjDpLCsiiotOwI3KKKs/nM2+kGPGb4QCziEfYtd0ygr\nIwZO95Jes8/PRc15Is0Vj0iuB4e/9wNVA+9/22iT/CxQC0Ff3ug27u5838xd\nUkFNmaAmOIbRTilz96CDnukB/slYyL53s0HLdg4WQEFqjWA7aNvufekodn4n\nVo0AWZVq/vy3TX1SkGFVZqCXrWmWr4Rih9dbZhKPI/+nztN6EhukNpoBwE5+\nEJPywTDRV1qGCsrvfOQqqSs8UlzqjQx1AtXu6gLbd8vm/W4B64ZKA1R2wBbZ\ncRftdXmgWU5zyv2jkklBFbwd2D6Ov0FviGQfEnIZ9dayeN92lvh5U/Rn8mQp\nV/N+Ix3/H4t5NKpv2AMA9x30TWLq0BwxpOMKua3zgavMoq8j9MsoAoQXXzH0\n3NXs2awACE0J/qds9FUpK3eSfQYat3+aVjLXuVrHVytjrKyhG96El0O2UZID\ndMesixcmlQbyQT7y61VlEbxb5DFMTIQL8G6FnQ4Vt07IYDLkpUCCWzF8ld6R\naJZL50waBdTcHNxCAuIy4CiGkMNEtdQsot+GN+3N8hPXVnwidDXn5X5Feu4w\n1F9y1B68LLkn9xAX1V9uILc08F/v2kpjbFi21ovg5BlnC8+tkmmOz/wdG921\niHXvEiMeoq8hi4ffgzfZW/LXUdKhOdo+7yv+JRfJhU1onnQBdvqsVjL+uz7w\nCSq58dneJAo/+mXCg1hEOsKtD9Bs6QAqWJkaCHGFs6czO2NEXpjg/Npy5JRw\nWDmJb4yN4MPEv5YUASVbzApROL4KOAnL2BDbRHorHzfyzKLpCh7z2tX0Cz65\nBok6S//vGP+xvLHLX8fnro8O7vabfCSYg0NDPZhgtpbMCgdqFcx+EJRU2kP2\nI9osOhlOIhnG300Mlvg+l48NZ/8K9za0DHw/zhIzUXUrCYJxhBjLoMipFKQX\n7AnmlTno7AACkypnQkd9pChwkYv8cU8WR83GDOE52vDwqcoG8OTYCFu774mN\n0S0JbHy53WaS5VKCJnaFobL24yTvj9IkPqVonh3oVIhaRGASos4iEwsiL69l\nYsKZW7Qg7NDvJMDf8Pxjscd0mYBAIKz1yqfGVfa0UEdzl4a3w2vzeYrsJNqy\nDpdvgyQF/yfGhl9kikRjqFuxGL3IarP7UTyNXOJZLaoZVWwhv/I/o8dsmEQt\nSAF4XYR8lebwcNMnCHZm5ZwgSgPktkOJegvRf91ktkt9wSL6eowv6hd/1Tbw\nYlZ1aTdCEyawpskHB0LKhGgUG+3QYXwLvN3E99sFGgtZIsDVzkvB/PvOlb54\ni9+ahVuqmPjT5FWAlfBR/rpSty8Xc3pEX3OvHV8bXFARdGV8OUX6WsFXqtjE\n8gcAYFB9/T9g4TI5u0l38/DL5zjdGz/J7YkJmRAV0OpPuthWhns6PQowzQ/b\nXUY70cdHr1jRNzdhBU51kINHqi0NZ7vYIdKMf7ADbfF8XoAwGRJlDEpTN1aX\ndgw4jky8sohbfmWGFd3uHkVZWpjFiU+KXj3DjWV5dXR1hCwSh3kB6BfRjhsR\nT68zKTZiX7Gj0xS1snfzJK91DmxUl5521QbdnbIPho4fMruZlbAEUXhfsnyz\nenID+NEk0xp1kIy5YBcqn/UNp6059KP7TY0mrPEYKJiNmDID/ZREjMW0h1TH\neLVR9dA++Lzbw6weWbDLGrRsh+cqP5iyD1R1XaMml4MiUw57ooBkSKuIEC0d\nghzZCJRoF5/VoAWAxit9Wy2dz6tbjTprli3AiXyPIF0W9jo2K/j5Oyr1zDkm\nAF7eMvty8z3D92oo98jv861cnCXJvQegzkWb2K4rTAeZP6/mtaUBPUMvOoXf\nG+7277lh+20fPg7dZ2K8njEDxQA+p/bzL2qMtT5N2hDsKxrzM0fjmTE4zdUn\noBn2nu16BWv8xZs3JtZoNl//jiU7I+umVfBXlP6ypgPz5zQq7JZ+2tLToZqu\nijyCLYKHLDJE3gUM/0Q3kVa2Ey41n/FvPQjB+tG6DJHe3QK0wnL15M2nFWww\njcAz08JtddOJ191exwvaBcNTkoV/g7+ruguJhJTyoiJjZgFXVsyowt+BA+IC\ninsUK+DE/mrvk02ZARNPJyg+yx3n0sTKKG9fesTd2sZ5+oTIBza3RuYhX4lM\nqksjiGKZZaFKx38sj3ckvOEFWUfFj6Oam5I22TmeBmrKNGRSJNOp06QNjRZS\nyzNY3Zp6CCX7rmnlre980zU2CPkPX7ozdu5mw4zr6LwnhGldTKS5nahEb9iU\nD3cpS745wjY//1Aj349sXiFwPo/AM5PVib1BYwMItEfoq+tOn3ZjzDLsI9bp\n1qcb/Llv2ho+hr+gb/ODDtptJ3iSyLntDlYQ3w2ykQkHDqsTdRcQy7kVjySk\nfJ4xArj5GWgZzuOQJQhfkaTDVcdG72JmBGrCCyYwPfUV6pEeokg/khTCwqD5\nOgsA5qLEicH8a/uHgtxMOjzs+47WfNPjNvNMZlH7XAiiWAXIGfQnVuwS18iv\noxt10OJUupMAHbiBNYORD1qVXqu55v9xxiMUs7ShL+fEAiK8uEnyoSH+0/16\nac9MYRd5sOEo+nWQUpFQ+g3b53g57hw3InpA2ZNsd8RLVKq0EIbvwKcrGbes\n7dJ5+gOz5RB25xNI38FuPxXirQlbo32oNkmOiWwQqb4qBydDB5oM6nECoCvL\nglm6iMaBxqiY9jv5SLHtm3M/1M0wJw1ih422n2f0pnLai9NBi65FPYMtVclB\n/mhWUu7KByKNX+RlW5Nc1ej2KKBwWAd3R//wRhptIu2IvMRQnzPlesii4hQI\nStzLYF8tpA1+VYonMzTG6pIjOevSuL86RlbKoRKc1UUdkLnle+UKMDdU7nKx\nbEXAM0CnVmD7oakdiDFD9TRXhKLBvZQD8vZX3vB96lIZ9vFDzJG0bsfyQsZr\n3yACddL/p1pu7lyPWobG/FKpi6gMCwdfirJ34g+5aT1xTaRma9jkPsiNvuhI\nl0dIsorjj0Sf/2q+K8HnKbmWYoa9EJ4QTVqzeHhJOQKSD79M4MQyscIQI+9z\ns4lYOaTT6/5qA1lEVFWvo6TwQkpbDqDqBWHXPPuN+WcPM1uHnap1A9ijcK9J\nHxmQtibjmu8S/C0gma1ZmTFsa4975j368rgu4mdJshSZe+Q824cDO4kS+aV2\nP2qoB1SQEcct8delBeyLarQHEv2++7VOUyNfAw8TBZSAejowxXbM+WFXrvUL\nWIbqBxRzQvhAQ1PXG1k85r46+Qttiruq3ie9GeSKHJrMDIO7ArdMcUw3tysw\n7cZVp49c0dIRfxjpeHV661q+Zyhz8IV0GsMJArHDLK/Q71h62qNDsDWjxwZY\n8PVtZzYdLJVWYaqRoLijkgddVkzMV57LodR3cGwZptldb97TWQenWaZMBMBi\nhlHeOSEfRJZhVmYeZZuxCiNF1OPjrm4in8bqmBeby+V3F5FKMqjo/OnSQaJw\ndBuBafEhJVkeoRK8j+xcFV9IZ3h+0H6eDWbXUNnF8rEtgPxMVkeRYf1QdqPh\nr957AaDXZs51ZQ+nVvEvGuv3yr20x3PKxtq1nw7HTKKRycIuWjh1eeRBwJHd\nxs91cb6doTJ83NsDVSQ9MBLnzhX0AZPINswLuNwziu45k4XxWVPBKu9z7HoE\nh8dqw8of4IZab0xn4D2W7H3kqMhl9myded/JdpRY3gULZozXgfttjSYLIj28\nx/qfruB+COnb29g+2F6wtnJx6paoWNWfs5TxG8rvr7gAVtlAqdP1qnUXemrc\npT7IEdm8bEjGgfb9zkqit433JcX1AqhmDrdNCF5Vm9Kmuni6ZiQaD/YzSzVU\nxMCydFFl+Gb+275M9dls0AFNfsHzy+RsbaPhmqXRPg0LRMm/maGBBkhqMNY0\n24vqBzK7IO2pGraE6LF62l0/ImAS11ThcKkcPbKAjV0HJn2n8R3mUWlwLQO3\n9NIXHyItIwHLk00c/Bs6VTMJkp+KhldMB7yW+yrtOAx2AFdFcxjXEbIcCPQk\nmaHSElXCKSDfk6AwLpyv3t68Zs3j8RVYkPPaw1hcQ+0EkHhu7BvD7B+1MkSs\nl5cBw6AeMq4rjcr0ZgUaJMYXpG9C01ygQEYh7A/NNuW1Sp6tGg78Ad9eWa7W\nJqYC/oqwyK1bGWyQNk34qL0TYQCXJhNHTFGn445amxcygiKZ017BfGIO/Cv/\nFOE0KD+GZehqorwSMU0pSSV7aTK2GLF627+ySlvfdckloHsU2EeMU/83csD6\nN4Y6i6nAR7IBXtRAaVJCmRMXVsQFwvaQVGLyk9PLFcpcy6OEasRb7h/F9fyY\nSomWyID88HI7stOoy6wZKSHI2cRIo/cPPYJlCxUNdsfvKIC7UyLnAVzN2eTk\nTeY2nXqMWxL1zUWznOcL/vJwBrSEkc3q9ASY2UzSyOZ3ss3nERSx4p4fKEIV\nbQjuzoqFLlXxEoIhnHtZdshxmvywXwWj5cNvuY8AD7jSYcpU3hchooqIGzhj\nPynAAbKFtjJV7o0WK9spYS9u3uhENppZr+H6tWp6KkkcPueMVr5v7t7GZXN5\nzoTcS7SnU5Lj9WWN6ZDf4FBQb1+34qxVPJCE5MJug/vbtBHQmkySz+PLOotu\ndmj1pR8NDbqlNyGjBvvs+23BA7FBxBnb3RZPYoIUsVkRaNcXQiHxSwYqo+jp\nANNt2XAOBAlIEhYut0gcgbdmH/ryC3wJbTwCL6VFTR9aktqkRIf9wspU1RRp\ngePeRW3dzmYCocippGWaYSX9mVwSHHExZhaNf083EO89BjaEGcr75lKu//t1\nLGa/nC/3zHpAMqHBY9KgM8s6xlxXG8I+0wpqXH6Mu7+QPc9a6pvkq++TkQNZ\nd50BYukEWNaysOq9Vv5MbC/tikV3sys5cDvUmwGtWP5nGdwwYzGLDf3anTMU\ndxX2i5PK7X8Jfk0pucwMYtfJr2/oaho2HzMgGT62h/rpMHWdb/vBsep8OMsy\ne6xjA/G9oSd/2Z9b1oA51JMKiqeiXr7TH3jFKuNBjd7O1iVPuPo7RUTldKMn\n3bT4eFJDOiEQ6MbYQ8t34kuFX7kr8iPegeiwXy8H8wdyRS9W6x1OPvqPOH7V\nR6tK74x5y0EVBeK6zeyhGcptvdbeXZ6WQM7UJKPLjzamd+tOeK3P/Ekka7WV\n6f6DTSB2/CVcYx+qtP+ZEQcwEe1zK01tlE2PHeFmx/S5kBZ7JORnhLXrJ7m9\n1Z4qrPvYRp5u8dMkgcN9XdXyVRAkdkpLeoEnbSRUwNwwaR05s23t2+jRsxIR\nttUxbx6hZpp/zjHXxFsHyUl6aspATMp2odEOr7uWM9H4/F+vQo3zHRDdwpEl\nPMO9i+pkkiJjKtj6tgFuY/Z/y0OgC5/sILP1MktSdTUdYr6/pK/MX4c5K0yX\n4L/6F0IL3n8HDRUSiNVh/BTVt2mG+hzdQwHkgk3J3fINQ1o3ZAXkUpeIyb83\n1RFoNtKftQiCvGImSyAHOPS+15t03iQTlWoCzhbFPVl+sQ1Gdx8jr4O+yuNn\nMorbaIT53C6EmjMxWRMgT/YgTG6R0eO+A40guHmcE4YbC01csS1ZjQH5uj6W\njSTV0n57PF/LdEFCxENrb+WB0qS5EfoHDeMs64U6G0x8ghRWh0qE8bNW5tiB\ng0Twz4Lmp/HuAQWiP/412Wq8O14Z6Jq6BPmyIWcJaZr1IryHJURLZ/LjBhvP\njKpPRB6XamTnmCT0pgUbvMG5kjMSSRIyIzOhB3RSbniVQH3kB/k7sdiwNgNg\nXqinaX86Ad96Mhj9DfoXy/DKL0XUZcUZWx0vefirDw0f+DAUlUTUyypRfQHT\nXRNRTaGu+Vo+P1B8JoprOnI6o4OuVpcPZRuIAvYw4O9jpm7uK0HPx5F61PF2\ngvFhCslwwn0WVEAN3MRFnexo0WKpmYE3Ra1QVi7ElwZge4gDUjQ9ZryOOSPS\nx2LHVmujgHpWL9V2yCfWWV8MfCbBPnW0XoSlgDkPJTnT2KIc3lh0aijZftO9\nk8skTv9OsWUMKXo/iE8waagAKJqoqi3ZElAGHeWRWf2ILrrlU8cDPokcq/V/\nmrqNTOS0n1A4rMXc8Tk1no8qhgEln+ho4WewRhoi49vKUVavDj+W+pdGOOlg\neDDbOCmxPlLvWOncCLPwByJ04JPq3JgeJBJ24wIalKqNe9gN5HMr8yzCld9C\nXepuWl+zO1NGwPcanGkWU/xjHG1zGL7ZM070Ft+CDMV6X20uAhwHBRiSF+Pm\nGoS3GiRexAzJKvaXheiTTnC9+lH8gdBc4XSacY0VuXaaoxUdZCJvSonXOxN3\nMRabAEGwLXj4xabSxg2ru5lqnHm0u5HuicsGFFVx33ktwP6ZFHUOUisSeHbU\nZ70G0YKoxP5Pw/J009QHvsiS/aT9cwaQ8lh86SHvs7D7k997SJsgKz8trBqN\n0xO4rPBwSpsmL7p+VF0ypouPONZKpsCXkdJ+gsJsZGDDi86kuhocTEq6NRhi\nCQiaWH7yyhO6dLT+xMpaPJw8Hwgl9cvIyOiUVIweLdIjOJmpHLh0KLbfbJQj\nAlfHu1eDfDw=\n",
  "encrypted_notes": null
}]]></config>
</Javalab>
