<Javalab>
  <config><![CDATA[{
  "game_id": 68,
  "created_at": "2021-10-15T18:36:11.000Z",
  "level_num": "custom",
  "user_id": 9271,
  "published": true,
  "audit_log": "[{\"changed_at\":\"2021-10-15T18:36:11.029+00:00\",\"changed\":[\"cloned from \\\"CSA U5L8-L1\\\"\"],\"cloned_from\":\"CSA U5L8-L1\"},{\"changed_at\":\"2021-10-15 18:36:27 +0000\",\"changed\":[\"encrypted\",\"project_template_level_name\"],\"changed_by_id\":9271,\"changed_by_email\":\"jamila@code.org\"},{\"changed_at\":\"2021-10-15 19:29:00 +0000\",\"changed\":[],\"changed_by_id\":9271,\"changed_by_email\":\"jamila@code.org\"},{\"changed_at\":\"2022-01-12 15:26:37 +0000\",\"changed\":[\"contained_level_names\"],\"changed_by_id\":16889,\"changed_by_email\":\"jamila+lb@code.org\"},{\"changed_at\":\"2022-01-19 15:01:11 +0000\",\"changed\":[\"long_instructions\",\"encrypted_examples\"],\"changed_by_id\":16889,\"changed_by_email\":\"jamila+lb@code.org\"},{\"changed_at\":\"2022-01-19 15:01:56 +0000\",\"changed\":[\"start_sources\"],\"changed_by_id\":16889,\"changed_by_email\":\"jamila+lb@code.org\"}]",
  "encrypted_properties": "7suaJvJNqolUywlj4E2kt5MSzXExQureQI9/pwt0lT0IniUVZbxkMkS5yzPS\nlmXSzT+kr7bRDtSOS7xAP7vkGAs9HCpcYv2h7/LEBrfPdN8NwY+16hvX4Lm8\ndqX7pzAH75pS4KLcziyF/JoQRYM9cAVkx2CKtVSwr5KjlQ/dmg0us+zg15Cm\ntqySUUM3sq2AgZvc/B03PeqiPaGoBOaiBB8wp4W7KdtDE7vMBNhJrBWWHXAq\nxfoxz+3jraqGE85LK6FzS9G6wmrWBWx2UH5HccIakPxNLSv1+uVlagSjmvHx\nJS1YZugQOvftqyBUx39ttmNSPf8EbQgYzX+M0VUc2sUgwm6I753rH8mTFcz5\ntKzkkICMIBfcb6fvrpu1WDSLOuadsTmGDqMqHQpRblVFqKCZsOeJ5oz+piGT\n0+aZ9csHEYtxyYqHnlJ0j6NwhBsUdB/HdRY0SbsSzmIxTABKXVdwXw7uGizn\n2PeN/wmeztb6mw1bWUIcngi+7S4u0sDAaOUY12QQ1tr1O+4NG0jx/sAqQER1\ng76zokzbKDbvj35sT5ULlGvCZucVyUL5/BiYlJALn7jjtMupZUveoAjLMtkz\nINLtSAGWKT1h1rHI+gv2CgIEavAYLYiqLHY6IAGSFQlFlANCGbvZf7RPtJVf\n9bJCKzNcl3pGqZlKmRM15EsZWXuFhtFAYP7EAz6sbxpQ6poTOt90G71ojDLQ\nJ7Fl7cza5aRusi9Q88Jm3H10BXfFYnObABo/53UWjO+Gb1kWeo7TDSULLI7i\nfr/jW81La9uTQ2viOAlE6bWoj8h/ju8mIRlMWBWl2WJnmUCzOiOi70XpLtKj\ndxyF8q4XNEthdTVCTxtC0qDPiBc/x1SFwADHFjdX+gWizEdSj9/2cnC2INsl\n6IZbcBLOPbhsDf+Ul/ZdYzog2GYBIJ/YfQUSFs7a3CLqsL6V6ct1OMgOgHQS\nFHH+VsPZp29mBIumAQ/4bXNaFBNTRVJMJwt4vOogdtOhaXNobVohdHRzlhFK\nAd1B7NcvSXbDpspxjvFFE/cxVQCFqU9ui5Wfu3nSgMa1hXe3HixQp3d+0bFv\nyZQoXtyM+qifIPyC+LL4z5fliqNJhHx/oEu5PG0Sd2M8sXRKim4Av3nEVm9o\nEceB2YC/VxILOva8q6SI+keELyxao8Nb5ly4n/ept7xLacggZLdd6MOsAeJR\nDgX8sjPjSgwz+SvH7/CY5S/NTB3oqZC3erXVgsX8fu8pfWUEft5ou35nDRv3\nTK7F4y9alEL7WCRnHiGPbpTIyoW58v+N60FgW9jeEFg7MKqeZ2fztOy3L7OI\nlWy1FBRUIpR09gX4j81d6tU2RYvwgum+fhh19XDQaYdM8Sfk57F2J0uxGC8e\nOLgPjj7SOC971tSWw3GXa1MxQzWsOnUmLkp1RjnFcTbD9uoe6eoYhnLfv9va\nRiWgWgsE9h3CGBhPiqhYgbrmoKUae0oZ5G5WwoJtlzTC7KOHV/ZhK9lAB5l0\nZGu/eQ0viSELeUmfHBUeDYxpcap7nJX/nc70QXD2lxGOBS+bjDnki+NzZHSt\nzM41UGCKvk8XccSNlgCLSE8bo8pbspaDkacXaWehWBRKna/vWk7wip2Tu/aS\nsfdLJJYaOnSil+RZf0gUGYcb+qI3COBLsRs5QgwqwL815RL34BKz0d9bUYZ0\nFuqK5+o3qgz07pGlySDJ1l4L/9IzEIYiQi1XMIXLjQ9OskC6ogDVPdSko6UL\nIrd9YOg4/GttbZFtyxv5uEi+NFb2YletyUnFQduQgcxruP+qvCBjVSjt9Jo8\nmb8JYILNDARTzKWNNubW9zJ0S0XI2NL5CBexCx3ZDNTV2j4dFi+CtYPbLwI4\nnNPfU0ABDxdxgZbJWfNVbZzObguPOvnsTQY7Nj88w8H6B0uwYJeN6tnDLMe6\n5icCpYqda6LHeCUGIhqXkrkznh2E4w5niQ4BFj+7IJ31/H17YfnaNDbz9mR/\nKVZxs5gMLdFgaIr5Jupzcl6x4aEs90UMyzXitXxUq4M/GAnSt8q/8Qa5vlhJ\nVLjvqxHYiQeB7BiXe1DBb5z4mYko5iTiUYqvqX1BxXMwYGyWWAjwpkmJtboz\nDVUaA6Mao5ZuB+6IJzi1bpKw280JdlVoWmaE6hEECOyh1h+Dtgn9nmwbs/0d\nRXAEzIFi8e6Bz/Px/9J+ahuA+hT8syytEPmsJKgaHD8YOGT6Fh4ttIw+rSqk\nDQpmH/5Ab6lVXpMOywPEspeLtXDDXN2nUZ7WP7pXuVVVwa3jpV1vYAndrNaX\nJRveCkpruvbvBPB0Ehsbw3ffzUqA15o5fLx508ev+BCxMF0pQz2RzrSn0Xeu\nydEKRNH7LZnKhOYjhNgSSWXOLwz2fu85Ns4HodpsdtJYPtt0Xx6fjV8jvY4f\ngJapKusacTKY5xvfiICYwoqqpszwiyFdjVLLuzdDspMOyYTbMl75bWUFlSdf\nlMQt07dzxhwF80vanjT1daxztSY2hzMZSsz8mSErw6zrcqa8AsY06OG+LvYA\n9NudvM97uj2PlpSa6DuSeamcr3HHq7q12cvsDtUCI896SdidhIpgUyBGizia\n0qxCLHC5xm5R+KNjqK9Pk+vz9SBKV3LxZWY1C0xnb7Ag4gw9Sce0MvNNMRCS\nfRC/lf5DCF+iGgiBn4rTXCmLeJxjA+nmQXe3AkLiM0cq8JtlMCUfJiig+9mJ\nvOGMM2bfBN6XmWGBZwp0lIsa4YtVeeTCwtzydhvPzRQoaHfhuAz+awSjDLAc\n5Jg3DulqCZyud0IWj62wR/8s+6ctJJHO3ByGBnvBjD9hYeLh4AjYmpmGVj/U\n/frWrVrERd8yC1oX6ZVq2bHRxV8PmCIjHlMuqePRxLBJjYnl2grp1buCg245\ns+GrnqGbjdFIc0fbPrd/aY1EFF8DP+nLpmqQ+tbsKzTJJmpnXI9JhbS0AEVF\nK6lkN+9DUu5wdraDfAAIXolTByjggWJ/yIEehY196qFgbPLIBrAQIaG0h+RU\n09FeFzFlQh1r1XAD9faQSHmudOG6cYlpJSJmSXq/jHDx508OaYE/+iUOK0ug\n6G0J5mf4hBz3QNBfzStWR7yEtoFkm2dXW3EegSDi5Bq7cXJwhZp5PlpfRtgg\nvkiJjyiLddwGZMdCAFJmZVpzu2qLE5dWKU6avlMvmqut++3t/nsu/ayfYyMw\nN70FsgZjZ9QOkF4WaV3oi+yUGozb2dMaKabt17a3V7egm574lzjeqXF0WGqr\nE4S0l2l/HJk7YqQ+pkyIVxF4eUJmMCI938xgpwh0hbNuKnKSN8j0oVRfuW8+\nRRt3k5p2Fxhw3evPfcZWgceD4XBOJMdSA9oBAQ4RI/VymzP9D5g8ejGgylrV\nwcCVs2okSiuj//gAfhJv/sTVSPD/B+GVxgCufNC3jxbq9agRlpbYl4Ro2cT0\ndgF95jq3d/xKcvrM5ThTzYo3CXbAolHGfZBAxB7VEJUa1HKqAAWvpeHgwapq\n+F1qv9shdDmKq9EoZhxlvir4N4NvCmackKsu5Mb9Y8QBp5rt2h2r3Y+HIiDQ\nW+P3YAWy2DWqH9AJ8inOA9hFLsw6Yb9uXjkBixey0q3NJDEGLmo+9u/I0ECB\nZXdVGHKuPGry0V0mBQOY0Ox5bmq56PDa0CMfe6T+MPxmqhiiTIuT2ipxdQaU\nqgPccxgpK9f7o9iHbkQIOiblCUVKccU+Znbszuu5A/ypKx2NfEQh96uIsdKI\nSoIpHs9vRlE/luHGeOELAkEPRDrhB0o/He3RWQ2ZAJsxFTYgIaP046mBi4je\nOPUhGcyLQI88aYEnYsTSLgNfrKlKVSkgcHhcLY0JIUj0i3n4GnEG7vSklet+\ne3b+00WTzOlauM3xL21YevD4ZwwTo8Y7rW7//lGbMqqKQ6gSZBGq9gtOP52Y\n2eV35zl2ZN8cQh0zUo/5XjwtUS1lZOdt6uABEVXG9SQJTw8wHybap7gpdK6H\nahm4MHyxlL6s+hPl6tbhuqFdJB9z9h9Q2huXNX1S7ha+w/O7UPVBu6shweT0\nz+HIWINoeup3QqWYqvS/MeZxNNNewaSMgPDD0OZqN6I9gkgkkq45ttgScogq\nnE+5EG3JYmsRxW9NYLkw35VRf4w/OjqxGDuwV6oTP9BVBwQy/8ymSJ91QsYv\n9g2GKaB1TlNhM+MAPxIqeP0EG6za2h8DlKLwNpTMr3h4MEsN6VqrDh97Jo4o\niGCK3d+5SgQGbZwS52z/Pwp9VkoYcjsALSVq0fFkQ3vkzs3tAN7J4QUMVrvL\nmE+YP9nOY5J4iwGZl9M7kIf0vgPtStc+yF3FrDXefSx0j4Y7X6f/xJqwAomj\nIbio9QM/bnO29Z9hvjlOePyZezjMFVOptSZRckEfpu/bXGnMHB4ppigEBZIh\nJUFrOJ/fAzADzYyW7iuBNtR3ajLbEMLvrYj5CZ9fQOow3F5LkrJTV6licvFs\ng/aRvt6Jes1grGpCYlKcgyT9AjDsfpnQ/3xuglNO/hudEof9gqDaxjc4Aaxv\nV0BgnG526nCokPhzuk87Y/TPFVGmK73D3jspv28EPOvQORZYL/T6E8moX5RB\nWmy7MauPnsoIPmPwO2r36b8ck6jJrWK0Te7gzdRsyAaxvoaIK9r2wY0DJdc1\nXZJ2T2wm2S3ArgWJsSREDrYWzFVVlfUUTa8isMGEeACUGd0jIC5ywc6VYUwh\njRlXaipMWBqVAEJRHmIEjRK6ZHWL3dIrC2/ut40mRlELqNE/vdr1eHTzZTKU\nHYeo4nzHXi56KsCA2Q9Xvy8/YS8wEVHRCxeXRzBuAhLIlljO+N2qoBWk6nwT\n2bSO4i8EF+bIscWTShxwwombxbll6A5m/YjneNjHee/LOIttL6SY2P/jcXta\nTndO+QkDDLa7u5QGmwmUVq37rMnfVXuu1rxFl/xiGnUAxTAcRHJDX1n4xzms\nLxzyhSZJn3p0q4zELbfYNSBkWOYFtbPIfa1tUl9ChWRHnshM/E7+Ad7/JA7H\ng0xmLcwpn26cijr+BYA8r/2qy1h4Stko6ntUBxH08TuEIYHh2IEn8cRQv4ru\nMSgK87X38M1+5m6rb1wg1GYu8Mqf7MMfuUrc56O52keBq9WLseJZuwO/KSqd\npcv9HefWSb6Ty/lJuogbSMpTIvbKS+0oTJIKxVP7OQZ4RlRR3XzzLlTVx+Hm\n+E7Kuy5JLELSh+trirqx7EJIJunKiyGvzEFTaHDfjHIig52qsbtbQaxaZxjW\nzztF7QIzd9PqBdd7XUnZ1w4OJ3EFyTPyx6rKo0stHJKmFT51ZLzwWoQJA8f/\nIAd1+bkgBlaRo+CYepq4VOTcQ0SGQ1leC1gfOlH+5pDN6dOZxu2EZXoYJmJD\nLjSoSjM3HKvdGM83KidgXUYBBnv76PfuOtcapNz32YaN5SFb1RjwtNH/eFBV\njLlIzy93EtXsdsQAtXb/k9muJpN1TjWquoTXU72Oy9UUk3x7HWOBer/7Bqrv\nFdxxllCpxSwnqKInv0z1p+ybDLWgNbHIqTs6INs/kJw67NIPRMzxDHFUjFHX\nzOtUB77YSGi2MQVkaGdpKUjzNFSkIxgVq80bmg99wqtyxRUnwbwl1Jzl5SDw\nCgRoJMkur1ZDwBrIzDSvVvDQkmk8F+3nMz59BKGYKSRIZz0zZnNduvsBtuq9\nVGNA8WsfpKmX+fMhaT2ua6n6b1Q5Q64+fvPZYLcmD+C66OFwRRz2iQRhn8qx\nPQxV1uvZ7cCl8rz5Xw==\n",
  "encrypted_notes": null
}]]></config>
</Javalab>
