<Javalab>
  <config><![CDATA[{
  "game_id": 68,
  "created_at": "2021-10-15T15:47:20.000Z",
  "level_num": "custom",
  "user_id": 9271,
  "published": true,
  "audit_log": "[{\"changed_at\":\"2021-10-15T15:47:20.048+00:00\",\"changed\":[\"cloned from \\\"CSA U5L6-L6\\\"\"],\"cloned_from\":\"CSA U5L6-L6\"},{\"changed_at\":\"2021-10-15 15:47:30 +0000\",\"changed\":[\"encrypted\",\"project_template_level_name\"],\"changed_by_id\":9271,\"changed_by_email\":\"jamila@code.org\"},{\"changed_at\":\"2021-10-15 16:02:12 +0000\",\"changed\":[],\"changed_by_id\":9271,\"changed_by_email\":\"jamila@code.org\"},{\"changed_at\":\"2021-10-15 16:14:56 +0000\",\"changed\":[\"start_sources\"],\"changed_by_id\":9271,\"changed_by_email\":\"jamila@code.org\"},{\"changed_at\":\"2021-10-15 16:15:26 +0000\",\"changed\":[\"start_sources\"],\"changed_by_id\":9271,\"changed_by_email\":\"jamila@code.org\"},{\"changed_at\":\"2021-10-15 16:22:41 +0000\",\"changed\":[],\"changed_by_id\":9271,\"changed_by_email\":\"jamila@code.org\"}]",
  "encrypted_properties": "gryN+UMIil/IryToWJ6erMuVxmmq/u8eNt7NnmaOnMexO5/yPvdsjFBt4SZz\nvSaxfboS2pCNq0/xhW3vb5JeHP9yG8/uTgh1VNEEOubeNeJOLc91ZB9SHLvK\n0sAR7eCP9qdMFY0poYSewYJrTBt0ZX/wu8MFZzEwkGU2hP7M9KkihLfv58/O\noWquHjVepwa3/GJh0ojMkmqF61RnqRFJ/BS7RMwyV+5M40c8mYQNmgX+Eycg\nUOo4z63jsm5XC8dk8dYIHuLhRSfNkmSH1fxfD3Aa0BzjSN/GTlL0MaFuARad\njHeCIOXZRz0N3logGZM8YhjLB6Sb/kvO6Y2TKtYJ0NJDCld/Kk34OXK6/x0B\n4vktGKm+wrmholeQG+f/ZYh5sJ0+4eGA+fNCgZkLimE7Q0jV+/SW7fQfSYO+\n2/GpfpmfjQwJcRFst+9rSlXq2q0sMqoLoztTTtwt6rmun5UAcVJdI5YZ2uvv\nA3GDFl+dzvtBkDsI4ZeW8fdi0OxU5BgBDeYQKc3FnYADhdP+uz/fimgO9RrC\nlkg6yBvqiZdheGtyzZaZLHu18B2jr6Ya6qImmP3FiQm1r4rSwI48WHJ10ssd\nTVXFjMdHp/cTXAHu+1PFlFTG77VV7cxni340P5TLbAfs5ECqk+tb/NnJ6zmT\nwOO1x/kJK7+/9r1jPrAI6V0uJ9jBo4CpOkS9XcvPKzHSDLHoa5dvufQwH4At\nmOIq70FHUJ2dT0aEIC1OV6wPu6+SkcrJkIcYU4UqS0i6Utx4hHWKXU5A59d7\nXtoyVGmRzARogvyZV3KAmVqOM+khPYXM8t30j5eKcJC5z5p/wS8Ywd4WaruT\nQ1QcBIDh2KK3NI9TMF2WTGXPgQBLLnnOX2GVCSO+Pd4ugzWJ51dDefsn0GgU\nc7MIT3dAOd7BxNpc5n4QmuF7PVky9mEp1HQ3wF89yvOR59tb2tBtXTl0gvU/\nDYNvM0do+2gCNu2orAadSeKlSV4RAZyvG1a3J7vlktzzgM6T4fKE6NXD7T8X\nyiFhR70fohkpUoM6nmQ0xdoGDxnCQ9Jor/Q2lr48IR0EVTM20bQOE0N/Bxch\nVX0CqrUcakIPUQ1kef8bPAd4oo8oma5ihhH8V403wPVKtA8pAurZeCH//hAJ\nxzbQpy8q0T4JdG6KND9rwHMPFz8Y29hXpQNg39aVELTVXYCrLkyeJQD7ejoy\nl1HMU0XlK3CfTZ0bZ3t/1JIskz6ceGXg45cLaYxur/b6enTJUAzFCl+vszfJ\nJV2mB6wu5tRN5R7ibp3h/XXxB/u6wW5SOFty3vKChIf2gJh0s8MLO6h1b19T\nnYLQkX50LqSrXiYOyMMp3fYu9PvI0zb6E0YpWRKGdyhUcyemVbsugH1AyG8c\nyFyOHcf1/q4G8IZ6BKtZxw0Bgnm2c/QHfFM6pLFzDoB7NCzwxhMYhW1IpTvP\nxytgdRnIvdaD/vFBmEBNYYWP/RI5O0TRzHcyJbCT7+Fdbm2rqdQIjKgyEKLZ\nyCKjJEen6ZQShZEyEM5PKs1VoRjGte7/LvxwUBP+X98jPcnKG7nLlb5T6BHT\nqqq5bn1FNhTX52azMZX+jrt9aqogWm84y+Wfj83HpMVRn4BL6btGt0OgjBjG\n5BkHazxpMcJiLtEixYyKuwbr6z6TWOzXdvVlhsMcXgEl1q4wj2TOkOHDVanx\nVAnE5e5XrcfQtZcJ+5oMCGNinguRY8vP3Mrbzul2l0+s3rg3INnPYZg3QYT9\nE0ejPy15TX5KmEHAlTKCLShkYp6woDkL86LyU09lxWWrQykuBmxlLEWlO6ZU\nNWnAVFtJk7rbwHHXEiAYBfuMw0qzH2FGHY0IDeB9LEdhnGV4f/tRUzkEp3Yn\nowLpppZuCE0y3aLyfrKaw2JIOs7cTDuvtnQdbe3cU4Ns/uPHvOXrzxaQKR/U\neV7RBaNnGJiCmA8Lllgrg5BauWAqf8uDbPfDhpDyaishu6TpvAH4ZURf9enH\n1z91vb5OArEah5V4eRNaoHAV9rblfqCepZPbZLFxJYQ0PfHJzbpZyLr2ZXe7\n6YY6g2e1c6fYALPsKKDX4yfu28V+xcezD5mGdeJwNMvvECWuEdMJqG7rLX0Y\nXGpCd/c69+frpHxnEpIgXiCmbKs16rnEGpiQkVqQ2QhNRzdF1RBaIV3AnPV/\n8JvEnOM+ZXswRBagKjH5wZVVBtSwC7kKQoShHCOqTdPdEC0ZZ/32dEloZzr7\nongdnJHsyfinAViEDS3cX32xkeouddceXytrUD/x06JPGG6QeOQdQEW4JzuV\nd2JepTGbSTgWfEq8xAfbzCLC4q6YMQzFAfOFtlFr3tKNNQgSPZV70l0GhJZV\ns1ya8psRk64X1BnlxXi4TEAtgQKY5Y9/m8tXrLJQPkFqgHPCxPQyBbJgZwH8\nFPN0TCdXfgS6XIBhuPIXdj5TLRo3hSvYau9DpGyDs/yZAZwX99/21ES9yvFk\n6ul4WADRqULyE9cYokINgLB2cGMLYZq/E9ukeiWkOD2ehqsteHQTFSGmFIZd\nslc0hQ8nKyZjpcVfWHlldQ/wR9W/hBYxhyJHAidFwYZ87FUkAwNupkktv5kl\nYkHWPy/YgRK6yJmeIDC5Mua9rEaVw5xrrejo6T85mVS9QSR6YMK2ZZ/iRU+d\nen+7P+nkMwzXp18rcJuYJB2WhCRqOwdf7OhGD+MrPi+IbGrnxFcYtTDwhi9D\n/oR4YlG2TPrUQwfFdJhF6+ZOp/AYlZEEWHIeY3yQKKwVDdnZSiSEdFT7xhly\nWDmJBcyRmdQp4XKVfVTH5JQtFwyNA5mvoRJb3BVrH9/gDL3IsYcZu40Vr25/\ndXwuJe61lDocQFdDpZm6uc8XN8tcjRabfZnc/JRY1vmfuxT1VQJRLW5dDrLq\nfF/fbJDWURNI/e9XXI27cjCCamiJktk2GR5nYZ44cdf4Gwj/wlq3BJt5gFhz\nfGji1IkWf3hWTZJTgu1CPsw9VzD0hgDnBOPKg06RkT7X+XB5ECCzWo7XIKyZ\n6PiavbP2BqGqnor3RvgAMP87lh+JpP2Mt1ZnHRO6ejrwL/r6+xJh1vAvoNEb\nG7zSwZRv5Q0rEDTMV3RTePU/AHyIEHh36j/rZKF2noGm+yOLbcus3CU5mhr7\nzsmCA/IYmhmdXrtxj224GGOUMMlfVqrU7ymWm17P748KVGD/9Fj6XdStV7kN\nOP02+po8XFA/N0r4vfBPBIqvU1q5/lAT4p2a0lT8fkaS6Dxvy1R/G7AUP3fO\njp6UqRZopmkx9K1/7w2rKpX6nAKjuTgmUek1TXBYqVvTZ6MYmTD1rle/qGMJ\nf6ya5LRT80WuOakARI/G6BLZPVzgLmO2xTEOJix+N1NjMUo7LNgBY7Dh+w3j\nFLsm7gtGcSdjlIuT3pWZRFjZg6goz3U8nPGA1PJUCC+T1O6HzjtCUYWMIcx3\nMxpx2J6GZXFFJ9nabXXEQdOCj+yHLWFul9/mxgkMrKpKUPJjzsB3/ctG++Af\nyFOiw5wG5eRL8PbMa/JMVXYgjRWI3OfP/6T8WJGZfpnOB4xz08uXzUNHnaS+\nQbESREda7zC1RkJc7gbpskJuLB2hm5ehevtZHDznmSnSGt+7Z/cOrExC6fBL\nz3p7JW1SjbWzxIK73uPJwJuHI0cjb7A9Disr4xC/82v6y4ZDNRfP0LThRhxx\ntmtclmUvs7xj7qt59f6JHrPyQ87zPd6pRutcTg7Ye2znQcUqgEEhnGwuxrNb\nwygnYo8H2K9xVv2Itws9Ja2lIvY04yKItxoSC2AhJ5FP003tr5tGuUOBDKqa\n2//Kz0KfvATN24yF4JthCdnKDox9nfrxyP4WrNGi3ilOp8zKRYENyCujNv0G\nQ4uLyWQdojMd90LV+vkceRn3aiiPL1Xn32nHR2fOO0CNggza4Tis40SoSCDb\no5rWFN9jNJ1Y0NxcQSMd9UPFPORyeCYOZrTa994DRvuiVHkH/kRXPZnkxkNe\nJcn9mJbhDYbSaaEh+xX3AGftDY0Zs53MwyLre10JUY/RWTUtHC4SR98iIb7n\nHhvCTgFNRSeM/K6U7wKOGMYlp7+439QQQCqh8OO5KePe41L5Vl0Lbb1wmnhX\necaMm3XpArjb+lBIO3R/3y7tdJ2nnarQtqSbRhKJbL4TfGhW+DT/LBYsjJeq\nqZpBS78+fKFn32amGv7VetJmIY2q7gvlrZ1nwIGPRD2LLs7tNs01IbYLDVXL\nsDf0zE+oEALtrQW+UKrwKmjvdFQUWv38+/dwIDFIMl1GRtgsp3jZ0qJ5AFGj\nigV3F+8JMeo614EVbP+tq6Wc1nHell1+kCO8ZKV1V7bFzi5GMdKvvAKjKlfV\nLjQRbi43yjH+kvNt6j9RkmKdvxDrqZO/kf/YGBz75DAJeVA/ASG3rHTY0cvB\nHUNhZZX3/8WvCqyGR3r8cIFerLdijZXzVBZubei/2UNMbuYN9xAGt9XwLF0g\noh4JRrcMKDB9/6WHbILepADfrA3QTEAZ7IjyzWJxevW+JA2rVQjJH3ryitkS\nMvUMYeUOa10AjzmSRpeSebnZ3oNHswknQCvSnSWACcBWdGBVo82Dkbyabmrz\nfHFIkgCm6guuHz0e9BSWMHpz2kU78VA4g1IOVxhKjH/KyZA/BmLqvJv5Htk0\nhynFvbfn1iNgw61OnHSTkF8Utp7SCrF0El3P/Lvy7V4E+UAe+ZPhB7wF/zcK\nQsbgtZf/v9ZuT7WroArYGrw/K2oT3xk4yTOaUnxxuzpabz9YPeFFQEpNPpJL\nsFhfFknIrualFh/A73qlW8wABg11d4V9omr6TIWGJfRwjXB5Vz5kBrBONOQ/\nqzAZNTY3wyuhUqZHLsrLcUyhIh7G2THjzqA01cTiGs7D2NIE3plEDsk81/2K\nb+ZhkiY7jy4ew4RDdBtEHz7aP09zvFKPEmcado06qV+2CbjuSB0fJjoUwQkw\neVDctKVmZFxQQBGKW8PVQ94gXncOD3E02YylFpHht1A4oPjU3o8svgx4MeLL\nHpxYeWHZbpCsYfQj3cLnVDQHf2TK9rlGVHjQwsMmzTmgYzjE4jRn234YUy9d\nceOMHXQJhap/3xSSYUpR2JL7o7IMWnSlSWYzYeaZHieBuPOKeG/XVtFs3tP1\nIQMbnW+ZPPsgw7oXiXD+QuPPg78Hv4jDoqBsN2gW/CELCU7IOw2bEo9/czn5\nAQ4ZpnUfUGbZhoHtEjdROTkNfssWsIUBnyHYmmkzIwIewcfZD9GWd0cZ/Itf\nAlLOqcqVZUjUmqQF6ozkP63o5wj9Zg0mmvoj1UBeQS0QLTgIOfm7+aYwkfIH\n4EMFa+m/JsfEM6NJV0qwmXaCodJQyDa3YcBJstad4hxnpLRqwL8P5sY0fppC\ntf3YIs2sCiuqceXnnCto1PwD9KC74RKpyRHDG59t/9vHrsu5fAl1PBDbl62I\nmZ7U+v/IssB/Jt0CtK6g8Tqq4MMxt7J35qOssPPXg4gs4HYMi3DcPCSl90ZE\nyWP76cC87dhIJ0ZmUCp2UIngWQRDTzj52549zimpTa6b3CnzFnkCVj3+CmxY\nQidYAdNtpOwxhrt8pfziTRkGVdUMbHsJjx0IQXZyoZUb9n4lpiRKLkFFF2y0\nhsXLBPpA62JqHGMJa3fNIFnW/TIcwrTuRckkMdnHs1sfU1nObXqGgW8dYDIV\nZ6lzDWvBJLJ7pnqH8n2vV3v2XePvYQLOn9eVlPdHuqTgmfck6fc9fv42IHay\n4gqjtmg4yWW9sytWC8DeW6oKwSjcH6+fkm33QSSLmM2lKkNDhUXkC2jrydAn\nJPOJBznJ4EZIqzMxO4ZE+b4Zs8XRhmFmOWVBdIrwY8syB9rtW/KD4lSdXkY/\nmgbcNCFtkTU6XoKw3uuyXquBVRqHSrVRwX3Af9S1Tn2M3LdoydeMBR/19uzL\nvctzG2Jb80NudvuqxLNriMpZ1uQlZgGRYnHzfCXLh4bGohNBD19nnXMqQu7y\nhYj9+cg/vc2LTfAIYhUmx9sm/qg3cUEOlvcjnW4169MyP+qbuEXrwp024VRX\n/ZzjElHA0QG2GCJrJhVA4IzYaPJcwyjPYjsqyAJjpzvFc03LJwcK+fEuL/XD\nlvo0oQW+/espCGNg/Eky8ek/4+LHMUFjfaiAP6fyUZBffNXMa33fvOZDij+W\nQZhTy3Fj1IHPDW4nSaY0LNH1DSNcL8Db0pEhSspZA/KkuO5H+5M1TLxFs4uN\nib+iNH9NPK5RtAaxKRzMuRWnemfd9G8o/xY3aaEzPBVAcWVk+YtvNQdvfaDQ\nr34BD63bReCdnBi5bp7/Ys0OSvIGthsxgBL0GtvIR0X1FfxTMDVu7xD7Ibnw\na21gqdT6EyCyw17aUxj6RGxBmEVAtIUADQ2AC6yb8t6aBA6mCmZlvcVA6G4k\nSfRzCzdXGXm9hTPEzTUJ/yqN5yGa0nvHmtO4F+E4BW8ocM3t/mV1rWKtTrPb\n5dU+asV6mtwU8oaD8LnTCv09m1iC7g+1A1uCxTaSgnkzG5zEuXpz/wDTS2S9\ncFH4oRR/Trc8oQquUfRpiMKTE16YmF/iFz5DDZtZQWnKJlTfhO7/bWQeHxq6\n+a7XQhiYy2BeCMccW0oNPT4hI162xd4G6MQ4kdiP78ul9vLHIvXCiw+zckVG\nM+z/dBtHEoSk8Pu4TbajpZabyzcCbL1+lyQaxPW5XMH7ZQwyC8ZWAlB3dELu\nckDzRKyUSvR3JvfOOXx0BeuqjtHjrLdr2jfqAgTcm714zXr+9f7KepvsAkkG\n2CKbmyFRHA0xFRuHMlYDLphYDvzrKevw+hONHjG8Ybox9V4eggWuQn/BnoAh\nkyASo0wXto5NZdr79sDioY+pRA==\n",
  "encrypted_notes": null
}]]></config>
</Javalab>
