<Javalab>
  <config><![CDATA[{
  "game_id": 68,
  "created_at": "2022-03-12T12:08:38.000Z",
  "level_num": "custom",
  "user_id": 16889,
  "published": true,
  "audit_log": "[{\"changed_at\":\"2022-03-12T12:08:38.957+00:00\",\"changed\":[\"cloned from \\\"CSA U2L4-L1b Exemplar_2022\\\"\"],\"cloned_from\":\"CSA U2L4-L1b Exemplar_2022\"},{\"changed_at\":\"2022-03-12 12:08:41 +0000\",\"changed\":[\"serialized_maze\"],\"changed_by_id\":16889,\"changed_by_email\":\"jamila+lb@code.org\"}]",
  "encrypted_properties": "nPHaFdV/8/su3hN43oNb+5UWN67f8mw0sc5CE6S9Ie3oG+iE2u+DUuITxPmq\n7vRlZO0Llv5yuOcLVKBRmE9Vtt3ArkPkmiVMvxTUSTx8osHBANGb8/ln7Wmu\nV6JzPWgQquxcxva9w1ubcd5buuzbMsDpzMjw++dJIFfNJeAo+b8ZF0UTg3Kg\nRmjKY+Sq2THpdR9ZKJ2/ITAjR4VvGOwv+Gh0HX3DbRGaYAA2tP090X7dhaei\nr8P/Sj1IVbjOAXVbMXJ35pEUPWrkqXHKB01+mODlCV9dgYfK691T0FP0YGx9\nA57YTlCRpYevid5JBcHxFnIJI+YaDPA9gpc20ve7IiipGPNUm0livVS7w4Z0\ndkVK54PBP3M8mDIZAoXoMSNgsvAi2BJClffLE1JiWdz1XjAvIPZN20QrzOEr\nBN/htRM4hUNuc3nCzM/yEGAThRSBNcFg/AAgpyRWsALqEUDnNpeTd6w6xfge\nlz1udahPwKJywbBoyZvsb4ZRV9Zi00AhA4uXPKSwaQQoPz23J9l9gEVyFI4U\n8Za7+fYEgpwZtmwrhXvvwXbmCKuFk+vxkTToXs0vyaw7tye67zBRzcQdR2kc\nSnS8p0eIB2BYo12HpnxOQnkSp+EHDSIRB5YQbG4YI37De/XfVu0RBdVRVsqo\nBz0jcPhAkNDfboWSY0XnvXzeLijSq7wVCoYd7+3C78NAlZEvSXjkM1Og+02H\n91BRIBvxst1xnXBXD++a3Q9b5UzaGud+5bcGCd/sjEiiUEIYyrt+rAp6EeEi\nRa8BUjcdTfJ+0jLXEZ8Gkc6S4YVIdUlCEL3vqpDnVOLrYKXW+YlArMOcv1fn\n9PIxE/ZYfN6784hh/THARm9XsuT68nh87Lgw5XGQyxg9iWqboIL7AIIeZ7YC\nvmN5TkDMY9FvWCxAcWOlit1YpMR1of/FwkbJM5VNfIOodyr1/KO7hjDmhXlk\ncmf0vOuLyCtYC0G1p1K9K46P7ijVcZxoanzNbEX57puTIih3njNML/IQ83Rm\n43v2fptWbkYVT6G6Ub/tblSyeheqxq7yI+8FT8Vd8jgqHUPU0z1DOwp0IGdQ\nFk0XsbH1ktSoZUBSkkoSO6JzrNL17+x6MHaW7u6kCGRRV85W3ZkpqhDMJWvi\ntLDx5IHx9Qx3bNR7C6dhiSQTTAcd/uclgpofoGJjBK+h3jDh2/kGJsuomXM5\nH/PdUu9byQgrRUnzNA3x2dsVq59oC5HpGi9PbEIu5SJZW4i3m1iunZS9/PO8\nG1vEBwtEctIkGJ3Kb3Nzs3J/dkMb4HINxdcIlUZW+56k6gS+ERSt3/tw0uaz\ns+hNlxjlx5W6yYoBegUWAko2wtHlj94iB+8PybxU9PAJsMCpQjGZSfDy7tAm\nFBXrDwdmBQyygRsY5w3MyjqAY98JkEel/jwwBaA319zLee1hT+rgZ4O6ja83\njGYR9dgbfGszzXP60tyCP8Jg1UTpGKRgfSd1aKaSuPnWUx10GqT87nViQ1UQ\njWVbS2QfkgaTeStlepaHleCX1mS12F/RmUmDnpPf/J7DaZN7J8miOZAQsras\nizjYKM3AlwZ5FXHAb3Nyjkh4ZnCKz++y4aoQn9WuNhWHGNgGNuyAPqA9VKuo\n4mlF9n4WuwUe17IpYlCtMcCws26H/5/Fk2fjlFhEk82TqCJhzNLj4bHSigYZ\nRuGaC37j1asXGK2YDuBffvoMEtHI4uk7ylCD+bZEqwILzZf+Ep/gWbQCjv7I\nhIHL11vXCfPWNcnBUpYUuF+LClKuJjpi8vH/D78AD/ppwob9GVeBrT7xV/Ep\nz+iG3sc7zAUPXraisXR2HD1QLTtyGQvNMUDFZldlwsoI4rqW3BUJJEs4M901\n6qm2n1zg6hSu3Q++uMNSaZ5ROTPzuSEhRkA47+CJADWMvALVWKOZ6UsH2Pef\nZic3aao/0NzEnb6Aa7ByGRRG3IeClM7my5zAXVCK3VUQICIapo9ky9nJCayO\nhoB9Fc05SQ3zu8z6uD2HF78WKrIV2td/gVdb0QjN4qRe2sTFnAQMSkmUYwCI\n1uJ5kmgjv8tbGeoPCJsUqbt3iJiMerEzb94jqhG4P2kAk9FTyu/SUtzkp4XL\nheZPd77VDw5QnHA8YzBxDpRodXIvNfZtpVeI2H+/8M4D4pYIPqXbv8un8v5S\n1Z5a4RY7eiKRskMzG8O0IwVL5JGq2AiKyqKtkJi3D8+pughQ8tKwEsj/M8jh\nRl6Yc8kVgAkqRmDnCauFI3Br+v/OFoW+XOi5ob8FmhmGo325axY3aX63d8Sb\nc/UmbvVdARfNtHTUnMr1SBCAMoM9TXmanz3SkuJTraPClhzdik7pKs3dsk9y\neeylaNh4PVCCWP9mPglG7dkwerv9HfWXMjwuU5XlcCmB+q5KHDx8Kw6yr1Ow\nGyW09CAZYBFoiN7m4KAgboxmck5nYkd9/x70npstvSkct5imWgpZt88gZ9fm\nrQdQ9gMOnEO8gW/erLR/4xM6cFcP6PVlTb3cxl971gUTGXIHvz6LTioQGBC7\nBtzVqYbdevjHqkyF2QVvLPuxPf/mo750GeTevnSaH5/8XZRZrc+PQ1oPGP1B\nTejqqsPw+VfPqe74WSFcG1c0DA77azaXwd10DNEhVluimXjEXjwBfcj/pg4F\nml0cAKfbQ/5twVEXgaq72Vv+RgyArahgEmRyRg8HGlGjYjTqaJxr9llA4/GI\nC9Kt89QMpmqdU7j99cyjbTQ1juanX9FEjkokJ8dNWvvu1fTwlsmhOGBPYw1G\nAr89xFp39pMkGiGrMOAtyY4P01zM6nrFPe3J01ZfAqdAZFiKSUGu5xbjcMnc\nG9DfcauEkglFT/VUUjOdSg06MkPJO33oPpv/FEiwS5tv7AuJtMHxSaw+/AkZ\n3qMabv3bidSIkJKgI9Tc6PeV+8eCsq2rNg1huk5V/EjOpxTq2vu0UgQ11fh9\n5IxjwKDfZGLTQ/Lj0GbC0JCpspYNkkNHPhEnjrGQsUxvKzUXh2fwwIoo6WcP\nm7bycC1UFrSphqJPCb2EEp3+7imf0cs77iRumSjbg41P/8Z0Zpfe/drCzwAY\nDheuuNWzk4dQvqt3ftkSoII4MX9X/MP4UXQB8n7a5op6FDUuUpdsXbp6FJlu\nCmlMCS/IGgisWHMHAn1c6WtVy6G/dBWNE0HWqj5jOu5svli8GuQbUq7K9Dnf\nAcsg578P0I4cnxYoqJT70/AK0Zh6CDn3g41HTJxN1lFLUn9YXqjioXblAfR7\nWn3QEgiys68KyjzzqWNuXYnjZkLVI/XYUzAal812H58iq5pWDwNQtYzo+6wq\nIkJqPF6P3ezW8OfvGkEtwV6Eo9b3tys5dT/TFPwRKE6ACWEfLaQE/VBcqODs\nvzExaZYXta+0pZAcAk+3EkTG+ro6slJMZe8Ax5KNt8iY1hYZSPqGxvk/9dfC\nNBLxTR3YuhgcUMnvmLRcXBuyNfbd/VepNpCNT7zBv7LEJ8ea4wFlPpKt689e\nfmoC7TmSfpAg+UBWvN2IDUbO8ECNmUwrWGTeksSXbRVPwD6QqYWheqFHeWwt\nfClsg1rbstgy4vptxu/9tSJ1Rn6+Ueq59ZW6vtzOeA2u14XaehWQtp+tcO14\nqruHh2JUbzKp0qibBT1qWMYRJHRMipZUh9Gmc5ctT5q5qGmyIRpPbEZv1unM\n9E5GZlyZuNzTxIdz5Rb1DEpTIJujdpwad0aOchJwbplfvTJzx9PgL2EOZGg7\nDENZw2qS9D4rRUx9tSHyJ9SAIh0/MBn0WM5B3YMWXj7f050+c/HQiAWmFrwo\noRZpdiuOXtGLsH1S55C5q+gB8Btn88UH7Q8ZsxawWuAx8XXU6kmUacSPJ8I0\n5FI7pq2Mffg2Ufjx9++ZLSTswcABbV/3mQ4vPQVPSezkYfp8xhStk5ZsMBpY\nilw+60ygpOilwrwLkdm4Ca1vkNSuLq7KzLcaTIkVRPggxIcmCzkImeMitdpx\n4qR3RvvxeoiMfz+7gxsD1p/FfOLFUEwOgUkA3eiGnge4yDZlH9WWHKfOXPhF\nVHU6AXzX6p1s0Z+yNZ778xONVmjmXJnLsXzOQzkmLnLJvATDN+TD3RIFlFrk\nU7LzjlQ2S3CgfUc9I75ZA+3U+x46qcpJCcAoXXftv831s50wqOkfZ3MPCxc+\nQ0Ie8XhXULCw6QUtW3+Fj8Rv64Ji2eOdT1wsaNSgqbn6EO+E4cPivjzdogHo\nWy7DCn/ztcv4JoJzhzTzbBfwKks+kQ7hlUF2rl9Ab8vep3j6Ob42QUMHMUD0\n9AcPlqlUACZkuz8iTI6KqUrcnOx2koa2Rc+KAwdM6sulLbwx+j3KiRmgo6PD\nV/PfMqrrMWX1gHo+k4cL4sXP8A0K9qTa5G1X5PHd7OI+VmDbeL6POVTWhfnP\nXG42ZQqYZWtxBWPSesu53zG1Z2OWgw7et3yfqM0rHcfR17yHavjT79EKDefO\n34KX9tS1dhXAXfyfJQ31b+3PyhI2PTJurTOlzU/oWBopNNaulMQ3DoNRFFat\nRp9TKp6LtOW3LyxysLiYvgUQgAwO4ABmqRRxAiCA8M5AUMg+DmFIM16HxeeW\ngT0h5DxJPGPO/ZeR9SEKuFm02xmpUhN0uX4LbJD13LRMrgRw4g58S9sZqmfC\nPQvmLQV/n7Ug5ZxTZuPC0biYLi23APNotiaH3bwlu2QUf4BnzdZnwmmv8Ndb\nFoqVR8pYTLf2UU76qfX3FJwS5I1JsMHK0wSS5tRBqSG9q7xi3TxOxUsGBTEG\nP8bHPHGykjW3E6ferAwYN/u5b+B/I2k2FmxmKbfl2pbMu2z5rHx6rUwmjmr8\n9ht3uk4ZspNR58VGC54ZA0qMDwUB85pJSaPGUYxahjrXbaRDuZeHAfy2rxi2\na9gBrAnxf2KUT/IVRDPTl3rAOiz1zZ9/ecDY+7bzn7HM4HmOFTKcLUoRSf+F\nOhWbUx0i3vhBhvrOC6/xnAXdELwri9aWM/zCmGrwxIGtnCkCOnnuFhIgftXv\niI2BzPWWvPce6OqcvwJNDDnV1nMkdQ/QaCD/vMJ4gz4CaBGEl07DRVlq4AHo\nynaycd5849RtyIYRgWg9cs+I2IL33eu6OEYEEcxcgfx9YkZ3/VPHLivafJwH\nXO4uXWnRVy6uCQ0HQ94ABRffW4ifX1a0MNmfes0L/SBHasubU903O+no79vO\nBC7okbMOHGh+IlIbQxEvzMTR60nUePWYmotuQER4ypTkfoonzVndkgrhwohD\nWCddvKVkn1cnTdtZEmrspGGw4K7H+8oZW1j+d7t/Yrf3BhiSqiwfVDE707MN\nZYdKTjteEaVWJsGfcJZ6AdDBBTS/iXaYZKkbrYvaBFWgM/UGD5c9YJ/WfVkX\n2TtMjvMPTqWiEjiCNsP5366SGwxcmMbva1FuQISNdN31qmM+MlG3NfQLA6It\nHrWHpLUP/cRpJryZVs3zEsI0D/suwGC0sBpQVhXvM57U3fOsrotFHbi4NkMf\nzGeigrnMBETdB5I57GUWRKI6kdMRV7TtNHA24yoaKX9U4XrbIFmXIJKGLhvf\nXv4XpBrsj45QcA5HJwmRjc6Ci2+bwCHppiwcRM1gBbCcxOV7O9SPMNqnK26f\n9j5V1XvJCKAvkivCnnsdeQK7EB7sHaKSUoYlzDjGkZng2WpmlPfLQiBY+LZj\nwVcbmSFHmZjHX+6lF0EJTB8xWdNb3wFi8i8Pfn55QgwBpKd8h+P4aT+xdnD6\nQH1z6LbZoGuQDZEA4KvWxBlSTiJkolVjEzRmwBXWGv6RinwbZlSm7B8x7PRp\n33zScHA4rjmfMa2Yqo0vvCKr8Hq38q7K+yZcFMj7Tzvo8tzZGkgkEBbTm4Mk\nXMt6784e0v5VTf7aviYcU1lhEq7FNH9WAP4z1RAsSCpmRVYUO/iFyk3pRM8p\nJ0mTTedkjPLSBQoZ74hSjHb62bjJOImWthhCGEaH6FpRdZKsXyPXOBo32yhN\nFEYSr+2SXoAvwcbRLzbQJsHpk/Wzg/K6j+Xvvioi4Pkc/ntE1kRMxhqbGe4i\n5XE0mYGvOZLNsJQqyBpE/lTibscsP9+q1e7OjucXfUBWmyplI9LShjkjMtvd\np/8A1T0T1ddHQlm15Ymcqk6mdgxL0A5naQaSARrn5uUIGI34N/Z3ipFKEc3M\nyKh0Sp//Rx1tsY4NuJE0ETvENuQPDS4W/zKnvqTFmhTM1PGBWwsmbu5g4Pcu\nuP21D2W1NixMFC9qHmU54pohRCOwWyN4jW5qBo8d6b3D8SoUdl71X6oDvE1d\nIIbRcIX38X2hGZhD4qnTYWrqPglFvg98u5zwtQ2x3puxVR+Cv4A28SZYQ46X\nzQ1OfwHQT9pHdcRFHo341Yy7H7rYnpZmzlRz/Uxp3O6BBkWLx66jrgNw3EsB\nzzqCSCfGS+e36ZdG+WztkRdFbxHS/4L9q6S4O7epCyptAczbphVH6OEv4s8t\n05z1YfHP6dMjXcfkS79TkGdQGnLKBYfXn2gnuqSA26LyZSLWV8dTAZzsKtSU\n70Hke4T+Bseu5XQvCGBF6LjpnB+KeiKQUALddUPNtUPClKq/MAESuAFZldYR\nRHbzT4H1BAjifQnpvh2nRxSw2TklvrHpvZ2Vm7Swbwlw32wzfeX1TkqvU8JE\nw92C08J2Lx71HPRABRirFKWTXRnSaVw5JZnuiXC5iNTl89jR89VUfDRpByiK\nyd0/aWfe2etl5tjdWD+URktHfrVWfHQzN6qI3r6Vmclq/Dyq4mXmTK20L5C4\nl4XeDmMqRsl9Cg1uby4S+TdcR7+cy5Y9viOWiH0aKWnqPPALysYdtoC0T7ML\nM8sVSAcycUeQRVFXK1CuA9L0bh5Dvhj5aIZAahgsceNbCtHgkKOrcGrV8J2W\nYywmNZ9nob5miulgf6bnZjspHtvfm1vnjK80JpMS+nlo7Ms8xqYSzltHOJ+a\nOtYYnTMN2mpFuyNBaE+0MNoQJ8srR/Ob0V+2AQ5BcevngFKyl/8Lu5cFrmXL\nvrtSqZL0H074/2vijfxfYDe+VDDmjz6hLigoCAO5jCPOK8rguzIUqVoM3ZDJ\nPqxaC8fITyUMkAHWTrXPbdvAV80dm5IVMJ7Y435eGXxk+9ZDnjt9QGRBdZ5f\nrSXMq7a5rDXrE0uqRDw0Bn7lGN7wLd34ebTdNnAxT+18NiQHrgBiLe08AYjO\nqd5b0xooOBaMFxbemoWrI2jBdddZNvcB9rQfKN3Sv8NxLN3c9zaI2L5G7y+H\nubdm7zLvq5CPRiq6Afb9BOXAUUvNtNFPN7RLswh+uBCZtTX0v0IdO6isvLiC\nRe/PeHRZJiBk0eIS2G/5BPdBEkUFMsKhVR+WhqQ4hL72QeJq3ZgcF7wpWUZ6\nPnhDJLx+lxKLwgF8bxhR3ypiRshu9wTkyD8FhMhGP+bOFLgt8WJuKPfxOxki\nRlFPRMYcp7HqrwDoTL8OLSwW8gQLvy4vF2GMBKS2IPThJJNSeQsGUcdG9Qyg\n4v0Msb1PgkJyMk4nFHF4RGd8C3l0A5nfruqz0BfiUwtZm5BU+g/2USgWtL/E\n7Z7JkgZY0j+kQM/2Cff0kemeg3lZobYFp4HmrAcHcmoEZq/+BTeiBpsUtgkS\n/boKjlEXJc9XNGmBX55S1knOuWpx5XqSlrdp7D8++QDXlE2iYN+O7t31tTJz\nvhX5BcdUK+arAW5QOyJsOejHt3/O7Nm1m9qAhH6MUaVo0sSLyVM7l6O48VrV\nz150q0xZfp6cYiJA7V2wSO19MHPydoGAYlbiepRRtZQOih6TyoAmeA18eKI1\nfV1uxEpOd7b7ZI0XI6D0U1lTcH7MfE3paPM1ySHbn9FrtNvkxs99Vmpqgi/T\nM01RcQhfat85dwezoSaYckH9M2yY73dcqZb+xweB1T/icOcW9eVbH8pxQgXZ\nlDbahvGBeHFrXmDmza5H5KNW2Rq5FnOPJz83e3n+Od8dqHdLVQphJPE9DWb+\ndUYtdnhYSgAWRwFocSx/WDZmLlB0N+e/+IkPJ+2brUDDIP0RdAH+2S/7l3Zj\nxtUzW1WFM6MJv+fR1IWrSHmcIIL2bFpgJVqEmMdw7zS/N0XAH+/PTsj1zb6j\n+E7WXv3wNZo+iqIrzSt1qh1O9oyPJ2SdpQUcynob2RAuVDl8A/e1prsM4iZ/\n4CFKO7JQ2NAmzJnYSUE/huyHnYhnHzR7opvlggXonCPdG1ymMtJPQVXiziz5\nlBOMaQ/WX0X2fb7+mH3aQkSrskUdMb5UYT/8bxNdIdegzsJfsLh3RYrECZl3\nieb9pMeIQaEqG+VOdq7mfQhOmLwhZ4xIhw5XQbdA5HvCsNslEebgvCOiHNDH\nKIKwyBoEklM1IvsznB4oqwC52Q7ORV4LCBpOBxyqLD4iCBOSF3iSMc7+vaFI\nyX9D/piwvV+qNM2Oc4cpYcdMWz/XIr7yyb/g+lkq0hTMJWzzKG5SyoqSeCzy\nhrwHdJrhDJmViZSeYVExdG6dX5F0EfReIspCS8f6vblhrYB+OYkO3tJeMGkf\n0Vm4lFkH0pOUd045kRwzaHTAK70Qw6Xn+fC5mX3T3CsM1/i6jjnHngRfxxf0\nvjItNKhkpSzCcqLxsol8lqERBHZk6Pc7CiAR+G3Htar8Z1z4Uhon/ToTC2S+\nu0x2J0Em+JQuRSizFhD7zI3S97Ta8dMou5e3A3mLLwlVpiZ4cG4JaTdcfHf8\n2LKuExGeiAef6Wub0dBjpMzNVBap6tm4wC8qY6ll3O60ghgA6Q/s7lIMUMYn\nAeRSJDCactoJAxYvjhYOBl79AT9kCPJ4mYzMRumxF0JBCnlviUzHGcj/l1vU\ns7V8KmDSoD9C3kAzz7+XheuO4F02Yy7BHsy+mB+83qn7DoQq4ejDswF9bCgo\nVvOJUFi+CI2WIYm9VWCwWDgQB6gjSeSJArL8W1OirvY638rsTiA/DonqE5Fo\nEluqgDixOCFt4zHUpRWBHPMsvaL2BMEIZ8Jn6kVBIxhFNOcK9FsPZaZV55su\n+2ai9wcYxfa8Ay6RCMigX28qlLXqf+0lbAQWzzAwzf9zGtIFBIyvhIcupmFn\nVwBN4TzfX7wUVw3xX9vgSgufRdHglWT5iQlfCKzlHtCHtwmIuA9XunKu+/oL\nWUrmOXhrXijcIsL6kAxh8INenfMcJb32hIHt6L+RKTKWJT1R8c881Q+j6FZ0\nV8MfpPsFEi6Ns7YDbJZMiPYT5l+ZvnhF/6IzHaEFEECqkjqcUpA2UzH9Rdff\nf1PBJldoO505eIEQylwYpDd/G+vPbEt6u+aayFPZQhgLrpzudyuj4B9heRmr\nFcDjMB53eVcO5XvjUuQgzFIunrcv0SGmY+z6a3u+Jg5ePz0rsmaggVce3OcC\nhjS7J9Tl1ud9cGw/1eWpqNnQ0KDm7MWXUWTb+VG0l0ZLXPsH5/4yRUMNSiFs\n2qYvDAOVC3p++NIzvEH6Hmc3diLPOJdi0J2UPWaCLVh3GkqLJ+J3ugJVjU9i\nLF36CIxqNzCFoFe5BmOX6/EzGqSCWn7OVy3s1DZoulO0i0FD7La2TnZ99VWm\na68lP43CTMF0Qt89wESwzC8MFRFBJjMuW1ubZRrYwNcHwIqDnmDvsYetryK+\nuUsXDzLt6NWfU9DWUJLhIpsK8AunDIl8XxRG4IpQNjz6N0HTu6q/3Y1dO7S2\nZ4w4LPUQrhkD4/7Suc9uvq7X6RUBKxhNnhCi/WLeOiIcSLunUpWj5X6jZrS7\nMgn5gj+ZNI7FWwsxF4gE/f7/vbtJD3aRyGzc6od6LFpoe23wdRDr+AViB9oA\nrDKmB5eN\n",
  "encrypted_notes": null
}]]></config>
</Javalab>
