<Javalab>
  <config><![CDATA[{
  "game_id": 68,
  "created_at": "2022-03-07T00:40:51.000Z",
  "level_num": "custom",
  "user_id": 16889,
  "published": true,
  "audit_log": "[{\"changed_at\":\"2022-03-07T00:40:50.999+00:00\",\"changed\":[\"cloned from \\\"CSA U2L13-L1_2022\\\"\"],\"cloned_from\":\"CSA U2L13-L1_2022\"},{\"changed_at\":\"2022-03-07 00:41:03 +0000\",\"changed\":[\"encrypted\",\"project_template_level_name\"],\"changed_by_id\":16889,\"changed_by_email\":\"jamila+lb@code.org\"},{\"changed_at\":\"2022-03-30 23:58:21 +0000\",\"changed\":[],\"changed_by_id\":18413,\"changed_by_email\":\"joshua.joyner@code.org\"},{\"changed_at\":\"2022-03-30 23:58:32 +0000\",\"changed\":[],\"changed_by_id\":18413,\"changed_by_email\":\"joshua.joyner@code.org\"},{\"changed_at\":\"2022-03-30 23:58:40 +0000\",\"changed\":[],\"changed_by_id\":18413,\"changed_by_email\":\"joshua.joyner@code.org\"},{\"changed_at\":\"2022-03-31 00:02:13 +0000\",\"changed\":[],\"changed_by_id\":18413,\"changed_by_email\":\"joshua.joyner@code.org\"}]",
  "encrypted_properties": "dlxH1pbW3APaIot7EDpB7t0wnXalwy9g3aBXt2LMbN1XxOql7rKubuKLwjQ5\nVo5wkH+DG+tGwXRScRRCovp9FOs1+Lg6mJNJRtieWRFDSuDAIfweb5Lgxvox\nagZ+Or82G/R57T8jKtqI9EtQL4mKevimCzRhHS7dqnxadQDRkuq+P9URoZki\nSbSSk1EzYCI0ly4YQSgtNWzhtmZyINKelDGEUgqWgvxu9wJjZPAfECf7YC0F\n1BK8uOZzRvfOcANboT1g9IAWhgEMavmNN55ZaQYwAJDCTopDsRu8Ylm2xRhq\nloBIJRNTEvOOSAl/PzzeRa3AmIdek8cq15LpMH6TjK+9nU72byrs+rDmmlSW\nAtOGLXXhbUtlSOoJRxCOPP3vQbL8zrzWJpEhf4crAI/kIOJAbS+93vhgnKCQ\nxV0dnT3K8u6PuHM3ki73/HLx6/h2afwZ8vjp23AQ2YNxdgk5Ifjh4HKE/wvy\njLct8mmqhAklNEDE77kyQzbRsylgIfQxj0Ytg2OunZIhdyEzKG/5lK2By268\nF1dbVabEdBuXEQVEqroMPve1Af3vc3CBMkvsjAbUA5yEsvWPIT5fxHJxUEGC\nED1j3/Jig1CSxLolMPfoGgyl1yB7JepbXb3i7vnFZNIWa+TqlDON4//Kq5PR\n5Z61xetYF/Z4JOJteIFwxHmwTuq9FJo1ft0yOZad6TR+Gd3cEi8ShlsXtbAe\n/uANbXeVoBBq+wvs811oEO4Z/ZIHblopMlFtVPOZKPmZ3dD/rYbgYdTV6DPS\n/WKZ65dObYD22ObbbbKz4DFRgtGCdVg0+iO2MHIKufr0EJK55SYgOJ8wb1U7\neHPneJ/XuUr1EVwMPu5SQ2D0xwNqj181+ja1Qi56Jjaq8euxJEhgxTGc12Ey\nrbmfqa+dC8JUpZTqOnZAuQDkuJg1n+Ixwf2/JsaPHlc/dPtL6ezOJ/PYj0mD\n5gq+sVLr3qITFvQQa/SU5JlsxvNAcmW3ij9eJ9ThoVgsddiBMZb+6wwd10e0\nAWILN2MZ7oipj8tfoUnv800FxwYVsgyu5Ti96486dQe8c8JZDUzGX0souZH9\ndlAhMEWIlw7oRmD5lnWfg43TlWU1mOydQ4K7vhls5qFiAl+82CU/LCLWEqOH\nqcMGYZYP/YtbfVWgrTlu1vnWRN+M0ylbdhi6z5TBiVIZjsvJJEft05Z/fhid\njjeqsLB4TwKe+3kCG+7YthhkJAum5+ZSBwhy5RPao5aW7wijfaevElrYxuoc\n7kPj2m7zMqM62smzsVTdzDVrluDnLysCH93EpiaWPoKnVw+I7TfPmrYi9WCD\nx58xeWlsB63r3DFzpfVB6M9P5skr+smzHoJ4sNzxMRr8bMvezBEaDWC65mfK\nOcpLzdsMCe/NbG1Z4yDimlCataGcA3hIjl2EJjz5f1rR0z2L3mIdOqqT7ldD\noMEenAJX9SdbLoQ7JmBrQRhxRAhauvRpdi5rMQhNrsvcBObdBwUze0dM0ecR\n3qRGlsFaPvybpdBdeeGQVJHrSKNJsYHBvIdz5b2NDGwIclhJ4dsFJdtTCyac\nm1cH8aoIhmuVFfb3MEvm6Z8mIPKs0OXP8Gv/CjcTIJByixvv81o8OsSTt9uu\nkD9mUplFoOjMTJ21c/PGIfdJDkYjXzgaTM1PIG0SXyidVVJju51cL9W3AOvu\nRKVffhsWxkBHLP9YgJtpqclZUrfH40Hb/wFMTMkujuF7qA2JKh9hpKmZs/Ww\nhaoTxyPzb/GWbHRgkkt49eo9xmX5oodhURQATQAiBzqVTyEgiDxc9jBqRCMu\nH2PMS31qhc9xDl7Ret42Yimja7Sz0PRohcHZHr3WVZyDTYwwkyGc7/mPZlYO\nGrDUghPHibNcEmcl0eO1FLhk1zU8OcARIgrhstjwbByTFWDpOx5eCVozrS2F\nlxGXGFRkpI88/NJdKd65rqo7QttNBdnXQzG+C9fn08iLmcDknxy27b+AoiAa\nbhByJ6V4UFXZUYmsYoq9mP24J9R4swUftfudaUSShxK7jQwyac7dhQDxQzbi\nlpHLstn8ItueKID2zOx6ZvybKPZItYhXE2yToPoQo4Bny2UUBO1ekbAu1jbL\n/IKbEaYIJJCix5XZXGWAFRorC4pImepqESLeQER7qZ2MnPZ5Vsf2+2CzrK0Q\nHMledSps/yO8Bt8jz6QeT8V3lV7Uxs4HpqpPLGPrIOpCWid3H5Jq4DPLywi9\nbv/7ihCrbdagNyK3/ygFEJ2HAQM0yl7orfG9xrn//OUiOR55fi7oPD5OLsJ7\ntoOzNkazmaDNAJSng5baYhfsg3HkvJ6bS0sDExaBl8c5a6787Hj67uaKoNTd\nFPyygcDukAuA47DJaCZ2CgjJoUDjI2m0XJ5ZUh3lA1Nzvxb0sMl6qFFsUCjT\nhsURYChMDEQ3hVHuxO66RHvYtjbUD+CHV+RP3jNn8QT/v5z9tk8UD3QWf6Nh\nxDUS2b2jFfnCNhu4qUfUAhEoqti2y+ijz4QUXfcLjt2rI87KAqNvb6hWDMjO\n/mIdF1vUp8iZpFvtihk2D2i7rfyvEK57z7bEuM59W02RM6hjqJAObqFSizP9\ntb1o0B5g0eZyNaPHRNS/25Seqq4pPaylQTl6s2FXXStJ4aLr1iPsA5Us/MCb\narMqXUa8RaRsM5mdUI8zncj/ya2QktO5JzD5ICUEuR9hlKJZugp4zrgSM0c4\nk8G9+Su1XR5jaY1WsOmNrUoUxPMsopBHaI8rrf6kIXLPcJ8rBdgomffJAzDK\n8y2ny4mKNLG17cJtluNa3bzYD/tKwGKCsdDanD27/L4S7JqQ2fUHscNvBJh8\n+t4ZS2kcqaxAgHEViFWF22g7Vbm5/nS4WfFDMD0xdrTVN8wWul4CNWoWVyQz\nwpjILEcgN+WnJvg8wvgsBynL8zFtzwe988y3W7ssBGPYWqJafnLR52kO0wZB\neWab+SMJf2gOrp2nLzS0qAdE72o8oCxxItEtSCBpXUsZIScrpfcrNgaRhWTW\nf9KNL4BqY+9SRfRwz90sj9lCBUgZzlQM23ObGX9XwV9XKsV/Bpiw8XXK3r+p\nKaqfIlKu1ESPCsW3SKGveIaoq3yYKAyXfsFfMBPOCmUtz1bw4R6/pcEbdnvC\nZIi96SxMSvJbjA/2ic35OuJdKpTgSaqdqRNMXwNobMhEVZldo92KnZ3w0lZW\nOMnVSp4yc9IFSrDeQgh9pZWpSsNu9rCm6GrAR9EvIEjG2hXQNVQk9FeYzIVI\ncjyQ1x/ftid0acnHqLD0YV8NKqVunZ+VEotEzddQTu+l6UzpFb2EMoSezTcg\n+yWJWAF6G6J3EIdnC1qGDHgng1cJyJgxeWmD9oEwe9btR8QzrdfNctt27jHW\nLu2zmfE/yVX8jkGU9Tao2bdmoohlixjuJkjbiy7kP6gbQpO8b87hOXajJhdR\nhcodqbvQ6QYWRs+rAfH8y2iLcgid/+Fp5eGmSQiGVH5Y1iAsz6kHb+K/G9Vt\ncuRYOkWHJmgyvQ7sS/WOq73DC2JAvZlqnSpGCxkuwwAHDztmJRM6rzfPmQzW\n4HPmQ8OqZBPD0QfIF0YnbE9s3yeOl96LV9IZInQLU1aQx5bUHhzyCIAfDdG/\nc1FDb+c1RM55EMIl5NCAOhu3F+6gJpagjYhSfZYyvarkF1PeaGh27RlfUYjn\n5Iv3FacVsuBoSygFWWhb+b0dofD3uc9rtULh2/5P69A6UZthj8xZ2bLaWG9T\nMpJV7Eb3Zmmp7wZU9UVA+7QUsNsDc13anSY0EUjQD8uMEdx/AjIWibGw83m5\nwDQNddWRsycK+fSSvHxdAValsQUs3I4b6kaAX0RuwAUDngAb/cJbdnpi8O0n\n9CpB1t9bl3p/n7U5vG5urNNt30XZNSC1Do8SrYHH6Mv98dQJY9kRcG0pwTij\nI7hieShxvhlqEpV+XoJ+4tcu6AHuchBO/DhFTXpWY8qZxT2FF7cwcUllgPbw\ntn45CDCM4MuCdz/CijgqsgS7nqBIArjGit1T57xkADhTua+CaB26ouPOnVi+\nGvk6fMfcH8UlIndoMf3bck1wVDcM4IBt+ZtxbZcL5i24cniQFufWk59FBfDy\nAdCXoaNVSUsL3v/MUTr3A9LUwN54gZqoSlHtJdhayH2TUYgzIkdQkq6NjEw7\n0W+S5etayrV9aVjRFnZ9MLwXBySsy5Z0Xs20z1mPyfo497pRgEjzLAvJzJfI\nbyixSNv33N2o5UmBExjNpE11i4eTfeCEIO6a/Up02ts7OfyIASzs5bfGEV+x\ndmoA2VspvKbJdHUdC43DGk55zV+StfViIAYIukSTo4uec8kM2J1piDtSHfUI\n3cDm0/nQ6VhWLrrjHa4zbWAxHMF4c7VV1nMntjJMuK9M4ryBq+eO/RygRzNQ\nKigGLCaOk+tyHFSjdinjXIKFb04h2kRF0BqWn5iRVhnqAZQRse6xG+unXF7Z\nTpdspIbnmkx1Yl8fbOpbABiiokvrcYY+mciuLVIMAKov1qZnWZMNWy7friDk\njHrvFOdiiYlNOiWMI66VXNLvD0qIPQLoIo0qs7VN9qBKGfM5Bh1aJiuWI4Ja\nDlJWhw3uYvBnUs6XC/ylesTkEzziApLkqzBc0HXfa1O3/Zid8V0h0nuwHIV+\nqy4bZzz5rzfsrEml+Z7n2RvS03AKqWHzZqlUe7i00iUFRIbS/DjE2Nhm9Lgy\nO01wt0c3wQh6jHOK8BAWrTrRH8fiBlQlA1bJf3o4SVkn+57C2b6pvnvknXif\nFN7jxtNagIiqtvO5Pbcx/mD017g/aUnnGZ1njfQPIZWFJnm1adCSfQMEmrxC\n0NDUikkP0CVria2kO248Fyf+FExTBcuECindE4ZMdXbIeV+EctVLzcHWhsuO\nrdyN4ixNGnmDsmIbKx7fEN3ogAorCWtymKdh3jyKLpBgtRwVtMNCUpFQcBvh\n811oRiixXTIK3T3NAFIHoFaGnT8FMn1QELB0PfnJe56LAFvwTHW9lxhyuCau\nZlOcI/QrydEQZBZXhnff96Gd4SiGj0FnIFUhQ5+oFy7b174/7L9S8TsdUPyJ\n9MBU2/kfYAmygpByfA5VD1UDCq1SyT2lKl2FQn1uu6PahB6s7nJH135ICfwp\n6rrO9p4ViKxkh7al6KFQm9ikgzX9/cu6p/N1kfCDASYDBZxpoFIKI1zOzxf7\ngkQyjBMMRFKMthESVx9NpLbzJe0pdrlttHPPzDBxtdsCaO/sAwbT8+6vz03h\nKrm+ua28r881hHunZEZV/++b7dNaEmN07IBrqgmztWxbV0hFQCA8KcfG3kfP\nNa68xYoYOQZfLSFu+X6o9or6eFCFQLWfw19uBtodNHYFAKVpr+Q+j6vBVzLT\n6XRnl4qp0CcyUHBwOqILbmWLWVVVDSh5JnK+1pz9CJAvtEAJixeZIMfYmDT6\nFfVukMOBhKj44FZfiJzBnXxAGrwka/P8yOauDWuXb98Hbu0JMN5yd1Rt8kLy\nO0tLZd37fgmTdr/U2E0JtT2XXLUZ6gRz3lCfBmYSLFrKAPrfjgPAEWbyVS2h\n32VV5TA/DyJxilZGKm1HsD3vN5EjpGRFKWh874reFfhHKWDqgwLu46V8uk0g\noBBHYE3L2xwOcO4zu4wThbvQDWLSUSuPHFA4/bQ7SMb8bGaD9MVM0o69/pdc\nCsiq3aqc8O4uPeP68zIBnmDWLd2E4U2MgfO5vBxgOwNtSwYdSQ3zNehUH+t2\nM4F+BYYk9xyV+ku2TzZ0YhtYZUdPrNfL576s5hmH+Ywl8hKBOBa6Y8pFII+u\n7mcbH0ARZMsHbTuexuRzlCumUqlGT+mF+4rG78U5MIQyauKFONCPBWH5sNOC\n+je8v66NblXayc+C7u7oKhWRpV4izHi2FF4ilVUTHgc+tYlwLdfd9Y6ci1D6\nfKS2tA02C1UQGGNXJiPXpWoQwH02/VejaY+zXNNStsKUNeHg4X/i7d/hs/UU\nn+2pEhxWXw/U43acEgnMeEVwZ68A9x8SqQcCCjnF9H12URV1MvNO3mt8AUW6\n0Ky2dFy7EP/zE2HS7Dn24MwopcXdkbAexMQ0UhrVK5ekY1qGmDmqBDpSwWmv\nfKuPj+tSu51eiP57lOJgsH3+bzoHNCCLnppuiacJdgIu+z3EuQWbEr1k+D/h\n+09DaMYal5O5mTq4rjGllsi9dffwDrXEunWzsbtaXtlyottoM2q2pak36ikC\nRTgnG3UfGKs6zjFEmKAnHoXk7RbqZEVuT0eSjW570fELrVWnf1zBClWFAHSp\nu7YS31RBnfGcoHopWIdevW/CFrMQUGUgyzsf3+J/fw/mgewVd2Gjogi3e0fN\nntVA2DqBDNNHEbQ+ay/p9ytsQCbbSBSWl3uNtqfbWCjOB81DoRT4wkuukaYF\n4VGLvdDWgEmyafLu3oWy5xl1jFYH7rGpnb7EqdsseP7uifJdDb31KJi4J2Ez\nlZZfKDjA3bUZxulNP++Wkj3ItZ+qhiu6JeEjK7+ATZx8i0vUqAE5RCepBUyy\na3TcQO5s4neufDMmsYr19VKFk3yIrOnptcG+Rr1QBOPeQmHkRkp+MUj8eQuC\n7vc5C3Is9ClzBHzXX3fBSzu4pqA8cqlsg+KMlrcchAyVeUZ44HvHNr7WnSGv\nsYkzVPkPLoxaQN+PlzXlmc+NL1Y6BTr1hY6ebcQfk9eM/1ysk2rutAO3azla\n7GvmxtWQsj5v27FLJFDF0yIX12YOJQO/IRwTO3hfAxVr46c52hRsbhD/EB19\ns9aa//zh8q6Wq/Tx8M5mFocPLIX8y7YO/gpWk/XGskyCtvkMV//B5Fdftlxu\nEgLVoX+OG9P0prvisIRMUCikIsYOWpK5f3df67R5gOfAAREwHvJBXk3r/flo\nqkYHpnnLtbc+SnyNOoLNqqlDa+op9ApjU94RftnEKSgBTQgNDXfNOS+xSw32\naioJWVtMv5uwdAiZa70kSMaa8mNvlMsH2N4IEp8ih8d+Mxsy99b1jk91BDqH\nQ97Xvako+TQsVlUINSKXExMT6+8wImOGi7/FLJbzRcwbhFbIamapkMD0SR+O\nAUOBGyXcpMIUPf1/4CN2TCn6pv7+yiz8blX03VWFjsDONWkSDYAKfZHwdE9v\nmKDiZzqgGLoYTwcXlLhiOrwjMwvHJYyIlswUe8Qoctr73+DfqL7JVrmhRSVi\n1xISEKIaYX9LFIH3vBhETf+RK/vRR3/Qe9a/BoNKPPdAd9DeBA9T1790v815\nWEWT3igz/QgHySdYtz5aME/Tn+oAYBYRRZJHcdCyEBXtHjCuk4hV5949RhPc\nKh9XJFEx38rLcjdHyBUG8qQUT9Bmv/uf0Sn8CtSwiZ/lVUINUk2yskUuZyZ1\ndKa3yNeFGhXyh3WPrhRDkhLN3ZxChepT9Zcg3/BTHMFs+WS54BGUH7kLquJV\nLA8Px0hb5TiunYwiX7BnIuQTEqf/jEyXcVjdeFdIG4OSYXtC0jgHGbU6wO1S\n3hJ1iZkfi/Y0T0oaQblfCRaLIM5yIXiyGJBNRQtmuwQApeGNb7IFzLFVzCek\n6/hOqhJJTb3fDgL5dZXQVbzKo2wo1CLko3ANIPxyyQhK/1S62x9hRAJoG1Kl\nQnDUBBlzThkN/jmGhacnpYOt4qSgLm7zT96SfY13oseeeMoPBzmDoo/vdo9t\n4BCqPaNr0d09/poXe/vYuiRAwO6EWcLW4qS1TzX8G/TfuScIrbCtcfnlH79e\nnSPB2t3LYOq+TvisKeFcwJk2m8IQqwmRFls8aBzL7pYgXVwr1p1ifxjIz7pS\nYFIKOj7hPNDtJe+MGF89hgPHwmJi4lp3hKBPo26XK+UjwKYxdg2uuJNabIpt\n+G0/yn5cuzeb1VqltBOAcpmoeoY9Lvj3UE2pyVr5e7/uxohJMRlUNwAJ0bef\nJ6qSEWlpJDL/+Zeq8nv6pDwU0eypdMb125l37Rd6RO8sJnR9yF5IHjMJe3/A\nXR2XdJfeFVD375hqdw82Lf11FWF9i/WmzTLf+tzgss9FSpBMcWdMX26eqbyH\nq0HE62M+K4u8/7JFvtmRoij7I0v9WpmQSniuID6p72xReIIgYO4Lf6Oxl9Fm\nn+W4YJz+YsFLm2aISwD9tILUOKIMnFpjn/VeRk8rkszmhneJYmbclIJ98YMv\n4UMuxgVagaNqDTFToQyQHQ8VysBpGmYR4lx0CAD3Lv/g19uMAe4jtIdXKfId\nNoJ3saMIW+YHFQkKttPYqt1GIkG+yoLG/cbE0xFoxfFHmnBE6cx9PttQaexp\nIPL/nZJTQe8lRPaT9+ogsjoJ0AF7VFBNDCnizRkGjNFg1mkjySYwBSfrN0M8\nvT2vBNrhAwMo4hkuKnMAqCUxb1tebTRwqEp8UyZtZ4/Gbmxx58L5dsO7sljQ\nOu13aDW/ZbtDdr8I4mzhUfEtUOqJ+3rEYntNAcAIyzjfERyQriflYqyLIjs7\nftsx2prp9PzzMMZ7F3AcjscuFhg7w3gpLVfXCY12PvZs1TqLu4mwg+rzcieZ\n0H0mPKImya81gaqc9cK3GeNTZW5MkHgjaAZcmRPo/e0Ggf0p0/MZGxP6SMl/\nVGF+x/+kCSFODZ9knwXpBw/e5QsIjdH0hNFuaLarSRE9FtYXdhd4Z5Rsx4KX\n/y5ZwUTDhmvmndctG3C3pzhYWdab7WN56MNu33NEhVGIEac3rPfz72tNQ7/9\nhcvfs3SR3b1IFiTAoI1l8ko3GdOMuDFwGsXmQ28xR+qhovUKEqccxutZ4RBo\nbZf4uVdELB3eD2XD3qDDOFTUlk+AsX/SY1+YnjE1XwkFiP8v8eqpqIdRh32K\npxKiS0G9BaI/6fCOhxxAoXEiJ3silwcMfKFVV1gfYp4L1BYLByM=\n",
  "encrypted_notes": null
}]]></config>
</Javalab>
