<Javalab>
  <config><![CDATA[{
  "game_id": 68,
  "created_at": "2021-10-15T18:36:33.000Z",
  "level_num": "custom",
  "user_id": 9271,
  "published": true,
  "audit_log": "[{\"changed_at\":\"2021-10-15T18:36:33.145+00:00\",\"changed\":[\"cloned from \\\"CSA U5L8-L2\\\"\"],\"cloned_from\":\"CSA U5L8-L2\"},{\"changed_at\":\"2021-10-15 18:36:41 +0000\",\"changed\":[\"encrypted\",\"project_template_level_name\"],\"changed_by_id\":9271,\"changed_by_email\":\"jamila@code.org\"},{\"changed_at\":\"2021-10-15 19:31:25 +0000\",\"changed\":[],\"changed_by_id\":9271,\"changed_by_email\":\"jamila@code.org\"},{\"changed_at\":\"2021-10-15 19:33:11 +0000\",\"changed\":[],\"changed_by_id\":9271,\"changed_by_email\":\"jamila@code.org\"},{\"changed_at\":\"2022-01-12 15:26:56 +0000\",\"changed\":[\"contained_level_names\"],\"changed_by_id\":16889,\"changed_by_email\":\"jamila+lb@code.org\"},{\"changed_at\":\"2022-01-14 20:04:00 +0000\",\"changed\":[\"start_sources\"],\"changed_by_id\":16889,\"changed_by_email\":\"jamila+lb@code.org\"}]",
  "encrypted_properties": "7suaJvJNqolUywlj4E2kt5MSzXExQureQI9/pwt0lT0IniUVZbxkMkS5yzPS\nlmXSiyGc5aLsTeAj3Z1F4iAfbIbxaO6UXnMVXQPsQ699YFTk3QRzuZArercg\nsUedPCY5XE0Wt5RVAlKWDOWo2labpXyPsFPHko/yAx5AGVwJtiMV9aZ7YVCw\noyMsEsq+zCmklR0gZrjgrVxZU3UGOBw4N3TcUDLiGjEdxVkcC78DhubnkQ2u\nig8MdLJ/TTjkTn7zSu8bx/5wA8QMtfQRP9IqGtd1TPe28qs2iX91QyqGJWs+\nV5SALkvb9qcoLmHT+XD0gaxfcof27wiKVR/X2eSRojzAMriXwRPLA95RdL3z\nxZtLnWbMWWUgooGsjUI4RQWpahhEg+K4yYBGsOvQsaDkeanZKOdL8sn7O2vF\nkKi8tfdoYLENwHECU+JcrFPC1DFwpRyNwX7awIjs4/c0/0EBkGZfme117PaG\nABOljdYJZ0tcKFrQFJH7geK2ano/ORf1KLGVFTu9cVkgX13bU97Q/zC7OQtm\nPFeRXJrxRSKp48AGuCAw5S6hjKm5xZ5pabh5xWX5NpCdFGHfqMDHuFrpQvGR\nxAyB8qYdo/5aQRlXTKypyCCn4p/Pvk7qc1ZPcYwoADMYxTtAvp1cYoP3imfp\nnlVAx8euPPW7SE/AYPisuTovNC9dkdwf7MH6OkhNxNG0mPi9Vnc3oOQfG5i4\nWZ1NNdO7DSaYejUjQx+T+2IsqBePqHRKCWhXG4fn2gd9yQeRFtQycowiHNxK\nRzV2We7Aul56JJA/dI5EnPIKPB9p6l/+e3aYqnBEBRhePB1UfUhlCw9rooyD\nSOMjijKggRT0sbZhpPkISLVIpF6oSN5tKDiCnMgAUcFw0i611htsKQslZ/ZY\nGdAVvM3zCB1dQDfN3GgSXBkxeGXSpwrOCO0rxBMZUENnt+jmhQfLY8jd42MR\n+9DLCEpRlyCNvGJf7sLb+/Ofg9MIvaq1V16QbFO4JEf+wSPCNvnSe6gL4pMd\n866zA2rCxZ4cTcMlGBT78axANPCRgMSE7Accg/rSG6tQE63yicvoy8TdMHXE\n6/G6Qe6ySltWzwwr33BgwetPbvEKFa30xzOBL4nmUyoN4ie0mfJdZUv8W8ed\nQkSY7/1INJ+jbx4fZKJAeE0u5Au0jTfgcagjxZMPtRRsf7QbOGS20FAuL8eO\nHKdQ22qrA7esm4JIOsSTSD6OJ9hUBuysjdMxShZTt5cBxGioNTylXNtPUgGF\n5rwtfDdgnxjTZzd2Ykwul0zki1xUSwZ1uwHoJ+yoDl3zmcW2tCx96oAlwlLD\n4NcA42EW3CvAs5rTT2WiUi6Sm1+2n1QTMSi/Q+wZgwAXdd9WiJ539dsNFRlU\nW7Ndq79J/Mwm+CSCF25N8eqJCccCmX9CaSGoanlD5KGM88G8iNVa7zw+uKJP\nM1fQfyxFfakOcMwGUkyUDAkZcVc5MEuJjSadCMfurAmS46FRRQ4qyZ6AHizl\nHCjhOsXhGiGLBxmEnhOzgY+8/fXoqvtkvuxyQIa2sn5NcoOvXkoPhQ+hLluE\nsxQBmBX5tbALe3zVb98eozkV/sx7nItomT1Mv/1iZrAcSZevkEqRb8GetrxH\nt5rIhZ8O57Kb6OsqmP7l4mHzXHV3CQBg0YuxqyCFYV96koLFKDUnJT+AVKu5\nW3t6G0OYzfHxbmJ7F5zt+iYWRX0kzG3k0Acr+tw7r19hfxtAVeY5/3wBLWDr\n/GQSa6O+rxIfLJ9SsceXqpcxqmfZ2yJF/AsKrELvO0m56eOVQzdCOJzt4bbl\n67Skg9AWRauLmSszyDa4IOSnqkJ0EVPjOp0TbHGLny3KSpI6l3MI3Io15083\nTTn1RRe4slmRa9BqA9zMJx3C67IcIQfTaYN96uqU1Us33vBPMw8Np0Zu3k0m\nNkz/9HRdWOqwzE/CLfNN1mPIkPtBeLnW/her4QJUlaktKuVPYjwAYg6/OI0H\nFTmkAbPpqJff7U9Sl7rJc9+MQqlGqCtHtrAWE0aJq5BlfqMlCgC4t9G1MtRx\nfWkziewTAxw/rKM1jAxpX8lQ0em18HG3AAMSB5inI4Wsw9U5KIS7Ttv3tm9p\nQ3rkrSPS9DsG/UTvLwp/GFzeHfcQ63srUrh4Ve9SGfbC5rB63PjJYA6tbMp7\nUwyFnIum54qZLVj2n2YymXqkon9Qnhx/OK55x0MDZghwU15pNcHpYuP/bb3M\nQfRmZ14nDSGVtJSZSVMv7dFdkjbQAZCGlJj8xyvdLd/KkSkErMCi79ZnhwY6\n8oifYjEap6wpi+NcNttwe8AMS8rISm5JSfZtJ58BACz1xkUXwM51NvXkOkiG\n/7cBBoj/t/Tr3t09uPTPKApbdKGKOifukr02nJanZ0Dbku2LES43lAxehbaP\nuGLYkJmjbdJcDVWDbiWNi9DAqWUBaSVm6B+7Cf28AlccBhZAuk6Y6iwcR1kH\nm2zvANUbihcNZLSx8QYpSU0gf3KkQBoEaFzcXoY5AnjPHgSzBR0sg4X83X51\nX1Iw4qmBI9O2h2CRaf5bn0MStNWprRILlAsq0Dmakt9iN4yVoOMvyzAWKGtS\nc+1Dx1fOyf6Ti9Cc6QoMurd4geqBdDdVwefOlVKR5FPXeUMAh9Zddgkev3+W\n1KfCdKShTyExwb/oEDL5acd5FLkkq6fb+mxotaC5d5hcV8ZllogpT/Gh81eu\nNoQcD63XTEWI/xelsEHEFoRJKBoSJZAVd3WFHAPecXM8/2/qJjpRefZhkXM4\naMIMN0azMC++T17txurxvnI4Nzil45uC/2VIf4nMhASdGRfbd93FqBGs7/km\noUTDjmDGbToiWcPogWPigxPmE7guKb0ezT5VNmEd1dNiZ1ClpgrjHLk9xw1E\nHtsrRmKgazT2ALDDUM0MYFIq2s6XnAyzRPaI9JNrYvcCDEvpk3OZ4t83P5ll\nD5L6/yJE+ofYsIrAxqVFNQajJWUNzJ9/AbSM8oYRtjLnoo9IQmFTfYtKPVMo\nzlv6ffejqyaWWbAk+Fs/cXJbInMrWQNJTUtTT1ZwlNBqPkl7iAkxxL4yTsj+\ngrchB2enhKwcm1x8dolBYKEOFiVINd//1unvNdG2+yvAs4Kb4AOhfqW5XlJj\nHYM+dU0Cblf+pnc2Yu3HrvmV+eJE0V7x46ftTQzqEixY04XxlMa5wRTaJsEe\n//QmrAm28Mg2dHzKNGerymPZS9oW8VHsLlewdMLEWxZh3mAKLm1+3HJDC7JA\n6lzUizr9usoaLONiLKHA4Yv51I4bJRNvB+TbiHPNdm1jcW1LyeyeNC7n4ohc\n517fn4ecwuPjS1RquyfxQsEQKCo0QWAcqNtEm20D3EPRsLRaDO/8zWvekY2F\ngVL8IPs110EXtspAz/Gs/C5YRO4vukmroqVgnTblZyPExlO3o1ftJq0LhQ3l\nlIXZG1i+EVDF+qoP3wbRBGTBhVCclHgsorL5T3OutUg7JXpK7O3liMzo15NN\nQKXtS99YD0gKZraBA7viW0TVhPC1VjuFh5zTfjJVbUvTQb768NPAvfac1VC4\nvHQNHp21XOHUzG9FVV490oVar4CFq+0HX89TZGZQzqZQhKTGpkbD1p1rQMqY\noE+o6ZenAI5/0aU7KVshmt7QeNdYGVCAVNQXWez834SocjintWt3yp0IaYP2\n57w7jwelFv8fhhiYNy2XoS8yQCj1VQLT+KNTR+/Gt9NkvTKDSTC8OVuRmiuw\n+iLVbEK0KcrVlFxkXbXUzO7ZqcQs6JrEol/r4xYbJiJmuZpFSM2g8s+HlOXy\n1uA7eVrIWA04GQVU9Xw1zp+JphXAQ/T5P+6wVDcDjkNjGjVCSBrCSmj0sM5J\nLPN2BuGh+4Lzab4JNCWQyGM380XCw31lmdsepny9AOcA8AnhFmOxBjjoOwXD\niBDir/PMJTh5ue2moXRH/Z2U/wHO/JTl05r5A8Ojq44LDZGXgand+DisiFIx\nDqg78g4P0NjYxYuA7AJCD+uXgpo0e7HtWV6s9PYMtBCTqQjyDI9GJHB8XD1e\nXLA2vcay/KN6+yhF9fUi9iECAcYvX5JbVnFadeDTSOuyJjrP7NMNef3cRvlw\nowBt+JqIpm1BpOg4duVpNqC89jRXqmWa/P/dgCrkVhDenLYKHdAVAn4kch0R\nQYk3JXQgNpGtkDXsEx+OcTQEJP0kRZPeAKDU4ED9ZmEBr5YzYs1qZRcizrNu\n84h4nN24lo97MFZV5t9QsxhYPBPpNr/fVi9GUMz80gn7Dg2aiwvVDgiSYnFa\neEJ1Td1v/wj2TdYoOMz4vuI64dNIChDqfzxCr1q6+LDnvKZkNNRZIpRXdZ11\nQUWni7f5GTYqXTMuQ6hbEaPMCi4aN2vl+MN5iEXHPUbY4tC2Dd/SIi2PI7nt\nAY1aEBoZRteS2FtrAq4oj+KO6vE/TlP9arzjt82oz7WQKciQpqqPVg6z5oV+\nkDyokOHySY4PyzBODnAjQnvcmxzCZyut5HMqqz/L5UfNpP6fh2tCjMw94i1f\n9MZSrX3yEl1NLNJNQQkGU80/0dMUhxv60spTVHOL9awwI+etr4cR2d6P/79R\nggEcdtG7dP8mm0KoEE2ZqQH1qA0q3vMn3VjonzRnmGV3JmS0gVYIv5dEIaGg\n6v/FckItakArWqgdVX9UJCNpAp1KUROHk5lHC/HbqYefqqwZKO7vo9VmAefe\nlqhiL3VseySu9I4ftV+0omFyenk/w9fDuhSnLUOVvPyi+kyYi9VhOx5e2LhC\n3oqds+yK7QxVqs5uNu/W3WT+cCGGaRavQN2SB4z4KtaGHJa4eBTHIZZIkUAg\nUU3ljbLVg0UWUsJSgikB7oJGSmq8IonHjtHsgVNYUZCW3B2kZrQIalx6aTzW\nAEZs2oGAZvrujD3QTnYntl7ZmpmEvT2CRzFFrAzxu0tm1fRxCRQuQUES31ma\nnvzMA4Xm1mOfgYB9l3id8Pg1pF4vxHYsZaZP1EvprNUI3mAX3I88nO74Eywk\nterkpxzX8Go5GlFPXdy6SBHNrnslVg9TSRbGLTmv03VS1G/vVRnkEUE=\n",
  "encrypted_notes": null
}]]></config>
</Javalab>
