<Javalab>
  <config><![CDATA[{
  "game_id": 68,
  "created_at": "2021-11-19T16:03:24.000Z",
  "level_num": "custom",
  "user_id": 9271,
  "published": true,
  "audit_log": "[{\"changed_at\":\"2021-11-19T16:03:24.452+00:00\",\"changed\":[\"cloned from \\\"CSA U6L2-L3\\\"\"],\"cloned_from\":\"CSA U6L2-L3\"},{\"changed_at\":\"2021-11-19 16:03:28 +0000\",\"changed\":[\"encrypted\"],\"changed_by_id\":16889,\"changed_by_email\":\"jamila+lb@code.org\"},{\"changed_at\":\"2021-11-19 16:06:35 +0000\",\"changed\":[\"start_sources\"],\"changed_by_id\":16889,\"changed_by_email\":\"jamila+lb@code.org\"},{\"changed_at\":\"2021-11-23 16:39:16 +0000\",\"changed\":[\"start_sources\"],\"changed_by_id\":16889,\"changed_by_email\":\"jamila+lb@code.org\"},{\"changed_at\":\"2022-02-28 23:15:10 +0000\",\"changed\":[],\"changed_by_id\":18414,\"changed_by_email\":\"thomas.wang@code.org\"},{\"changed_at\":\"2022-02-28 23:17:05 +0000\",\"changed\":[\"encrypted_validation\"],\"changed_by_id\":18414,\"changed_by_email\":\"thomas.wang@code.org\"},{\"changed_at\":\"2022-03-01 14:26:11 +0000\",\"changed\":[\"encrypted_validation\"],\"changed_by_id\":18414,\"changed_by_email\":\"thomas.wang@code.org\"},{\"changed_at\":\"2022-03-01 16:07:34 +0000\",\"changed\":[\"encrypted_validation\"],\"changed_by_id\":18414,\"changed_by_email\":\"thomas.wang@code.org\"}]",
  "encrypted_properties": "dlxH1pbW3APaIot7EDpB7t0wnXalwy9g3aBXt2LMbN1XxOql7rKubuKLwjQ5\nVo5wP9wM2Mh+zl0IRG6QicBSkli43zhZy6hS0IMyX/zxp9N5EM36Du/oAFMK\n0dNFNhpXOHjnyRbmfTrTa676keJOG9pLpvmUXhXj2cfaGNWgnK7GAdJzIOva\n3ZEkdxHbO0msCx9GusFI41qhfbmw/bo2SnDOTN5DDIWdupf/PsJathwFhwRh\nLXVCIPSNACnJwxBjIiOyAaFM3u1xR+zBf8it8M8PC2f58gFUvneiDhBxgEcc\nHwDuBpc3ydCU1xx07vtkp9zf+Pkmcb2Eah9BI4rclMehv9v7NvqjLl7Db55m\nX36VtpQXApG9mYZhgMCCRYa8J3oorPprx0pUy5xCZDQy1Q4tHGi8dQ8gB7zJ\nx9j2BA9zvr5WexD5/wxlQ0x2Yyvv41ArsO6S/tC0Xab6qWOT2y7eExwqgip8\n1MydYmOUGcO8xaO05TmWSJFK3xrK8sehW28u6A+n/pbmaLqxId2VtdNt0/qZ\nsxqTFHe86VpMTD3MVp7K8ptpoYFJe06NtOXoIiGo6BmuSWTnNukGzCGVZ6iV\nBMu9CZaCmNvzf6KoxNg4ov5YwqThH9gfiK99jDY+Mmb3JsNQai9OAljD6iUt\nRBd1IdtwEuNaTcLE2YVuhcGT0jzOC8KSpD3b7Ka7mBxyXMMsfDnleNeclXHl\nQsOjKzT//d0Ysxd0r+hpO0E6cXK9E+aOp0tLPiv2/9c+j1u3wAH0tPgYPY9Y\nyDvHBmFlwvwuRiRSz+tdrBFlJlO1lMShIIfdnoz6lYpmvYu7cf2ru9tT97HH\neREC2rkysniQEgG3ROhTnNCWoRn+fE/y7QuMUABs/f+Az6KkwnI/Uvmbkfyr\nriLnqHOWB/3tI6ng1rYXGx8qQQPS7FGrXoUmgg5WN3K4yeaUUvY1gJiDlc0U\nExefng5pe/As+Nof0H0naXC+BMk1uem2BZaFDgno2zRys3afFMZOIgzghncF\nNTaTtLgs3pq43/RpCrZtYzPrIBVg6VtJUcl5/4rrrEvA4BvPMy+kgy6nREX2\naQRqMogh3E2ioXdlDdt/Y774xMZw0Qx3jheYe6gnUW0ejvgTHXYs4wzoJf72\ngRm8uRv04rVFiX1/zoZPwat6njmlfvtIPpzbScQHWI3mwxd0Lc6XnrDQVHxg\nQHS3nzJH4LvJE7+CkJPkVghHuW3ManhPI1/9F9s0gJdukPcAyNqhcWSn7Sz3\nGHcjrOYInMCwYD/UHHQx7iQcUsw2DaIOZTOsrIwKWcghXpmFsKxsmv/Mo2ES\nWerv/yK2oFr2MKFxkjUrx2MIYPF88rK3HPlqAGV4dbz6i6qbXhKDZhNX/WWB\nXRaGS9ij80HnuS7shv3PBvcPvFqvd6bbRild9MuF/TrNLGbIY3HQ0eBxZbxN\n9wQAvlUVmVnpCaVsko8QcoVwnyW/9CFX5eEarB7XoeDcUqEA1S7U19G4uU+v\nSLy8O6GMBg69LuOcwrFAdM2ENN0/G6WTaBUvh38oR9WWtXYSxqsis9nPXedU\nv1jX/rhUcmzXwpkWf/20d1U5c1D3tY4pSeyhHlpqkbUMxUtnPSnUakZfk/7y\nFWSF5OoOFkPG+RAEhxmaMZ6J05G03VgcVwsDZCe0xWD3jeCcH0OPbLYfejBx\nnNtHaH7nsIP3LGhoL6jVsb9IEL/BrPq8OxcgtROT2xq7oTnW+tpzljTB832u\n/0Kchibvh7uVDyllUEVoW2p7eqntZl4eJRT8lelQTIVYNXkAtdXCTbq6CcQl\nBL2xtD55qv7OFZzv1LSfZvoMF9AfSQxcFTOap0Gc0onO5feGbpruUGkOJRFu\n/COcscGKuRROarS4Be9d101Asm74wbKyWpt0ptOdqCAWzRBQSr3n2trbPOA+\nP32AqcRWi9hbmheEvBMBlcbxxnbc//3yH6VofZaXgbaqUwYt0pQFSDBtvuyS\nigihST51t5sTB2wJptlxxQvl9H6rFL5e5FWZr9zosdN4TXBcz6qu/p/qKkUe\npUOeq/ch0mrsKnSW79JB4zd1pJa0fo3GFieLPGH6v60jZ55zr7l1IxZ5KHxK\noa9xAsstorInqsPuyIR4gyc+b5b4nDHN/QPWBfu6Cfi8DElcqMoNg6mFupoZ\nGz8k4VssHAaxe7iEznXNW4QsIkv1Edwu0sEZoAOa4VZ0a5F84O7uPgrc8PT4\nvomSFlPBYSvCxcpWojMWgxKrPLwJWOtEpM1t8tx/0SsKmbJdzWJuwROa//qR\n9P8EMuU7VByuhM74cOQP0Q6+igGtq68wQuaS9dQoerITsKU1tq8YdgMpIqkP\njg3U8ch20558vBsTNm0iKRGqGU5sa2WDDjCFOZuhG5kwI3rKmMWlpvK3FTZe\n4qwPZTLrR3KFpa4FEBZlW0Z32BMs3U8RduhydEMQm+JO4gSqwpMbUNLsG56X\nmKzH27oNUOWDFmr00Ay7NK4mkc8P0Rc2uP777KZmNO8X/2REkS6Ow1f66VcF\nuOhPTQ+b14+n+x/4lprMqIltRd5zuIW2ISBxEtVqV/ptRGhDYnVuna8jhqz7\no4yndvcfmank8PsjPMDYITK/c/GYTLYXAnNcwSJHCYEWLRN+TDdoRkb6dHrc\n/R5ya8Y7xFUlQsg9i/qzG85SwN+oyTezvbk0cBqeCU9FqZ7khmhy8Hn3bEyX\n+wertxCYo+b7EIeHqfkQvm6g+DF68/22Gua+FsJlBpfcNWhyD43uhw2O9H6i\ncWv3VAgTnqGK4UpYRFZKs/vdNOzsIG6/0m71k4ZqYFwiKl8rK5IXzcIy7EYE\n4hR3Nh3AT6gzZ33MD1Wvj3lqi42xCSA/0avaTK0wcEk4k22sGfNRm76TBads\ngZHtokgnWDuq3kJDu7b1ss4QcYPrDwH+2dJFs2xS2+wiOns61bnecE51rxkp\n3OLaW8d3qJbO8CMGKKDq+wgE1e/riy5HAQQJfshvM7q6gINzIGISAX2qTaye\n1BMwPQdAA3AkwyuwRZ3rbsvQOu+Lfh/pM1Jf9Q76A1qRLGadjz/sOpD7rx5p\nXV9ebKXWxa3EwtHi2i1jW6vadOHXZoATuXG6KUZ+FhaP/W3H8eMDMO4Mh3i+\nqEcRJivrtDHt3Y8i2MpJCASjlNFZ/DF2+adPXbEsvfxpeRCxFNzmuMeeb0JI\nIDoxXUdptEKeIUhHhOmHfpi9Qq7QY9MVvEDQ30bzyuqM1m9qPIBK11goKmvW\nQCKknlNMI+9R+MZ0ZZBzz/8VShz8givZTvk0+T4NY+OYacuUSJxyLlzEPE6+\n0tUVj+nKgAsimTMHnSyCowNXrr/Qt8jsUPVAKx+st0l/9q9rnG4a4cDv+Xy3\nuW7RMviU6Ja/4h191SwgT/sFrPG8v153TaE9RtSDu8MRFerJhijIE0KmyTk6\nc8tPg39I8aUTL9rcEjZsuvkrycWv7dFwIf9vPpLB41JlCtUB0vdLWr7ROhMt\nQdclNYxNwpZ6rOimTEt0Ju1Um67I+AXfonxUx04qvfqOrkX/Udy5WHbSu7NV\nz5WQlT/qv3NERcRs9Dd3plOSLNfqySLDkWExmRU4cgiZ/MQi3w7IeNYRho25\nCHOBfHaiYc5C0jUYhYjTwBlbp8UX8AUdKA5ae3Pznjk+IBbm7fLill1HgWxm\nVvtp3USWpncx6AjmO8wZFz4356j6NR+Q3kmLcPf3TmQRr+ci48xxmp5riud7\nwt+3vHpj3tXXGWSm/yvOjjqxCFzCjuoo3YqJvDJcbI4IqsaQIFa1Jp2FLG2a\nDCuPL255HkhWTyHNIpsCFMWqUEUTIov2DVV2w37nZDqa6V36c0zL9Ruu6wtk\nhAhMqNBl6azykSba7xWnOaGfOfglN1Dzrfbw94GGrXPn3rVsAaB0egsvwTQl\nvb7QwwyfOB09+cdtnuNhbFD3JTKeC4uZvBIihLa0mFSeYmd9dx+t1zUvfTib\nKPp9pb4sNK/0e/939FbXH3hLOHOAhM6ZzlZgeQHO4EH3JOubgg7WtRnphLPi\nXJ5VOXi4JCT2FDdPW0DmA3rtrD9pa3V8SSBQJ00kMP04w+/xmDDYzQ8dk6fc\nBMyh0Qp5vm4E+S461igKR1D6+PzZ1GYj2Bxy98CvDWKMGopRC2rIn5tfXsQM\nQiPo6ziGzdEblt5Myb6D2IPogh+nBpb4l7IKTr5ff5rHeDZt2HnC2uRLr3gF\nwsRshDqrkFUDBLylq8OoAnxoHC+YRRBgw/5yeAvO4YF0fbVdDRubkaI994Lp\n0uQyxY7FJvSGfa6beG37W0uKpjB3MOxDKmIeCQnf8ka9h7kPhQDlZ0akvNoP\nZ6AXPT2NA4PTM7fjrBZ8Gs1mp2LSrNujiK+OmoJmpPwNN+GWnxeoFJuggSMs\nuyUkAVbzPUbUCwLDjNXCAjdhCFjwcR5br6mgId5jwpUCSZcJXEmiO4FWCxwK\nhTiBw7yo4LZeJEO20eRc8oiLLy5CEXkQUxfp4nPO/rq5vrGWJg4l9gVhEPGR\nxB2jsZkhZJnk9Hqm3LhbpUYDlR+D4gMWyxpObXcd6IZFWRZAizdrdClsq6zZ\ndqW4vunIoVay8S+3fcyJQF+2FVnrSkWbpFWddG3EWm6+Epo1EFRl6SYjuYd2\njpAdUhi6Vxj6rGsBoeNiHYB69WZEdZRsxTHcx02KLWX090qtAT06X6jYHiO4\nawDMKiJw1X1LnoHG31a5CBYb43J8UCEhYOxb/qazheTBTfErFO0x8Lo3idk+\nlk3zPLCuuL1zVpgwSp4M/du8x9/qA3phWcETa+gq9R1iIAiY3cC1vchc06+c\n1GY5/k8lJcZscwmMsFilwL4nZVlFbcqh9mbEugAd1M6xFag+vHHV5VMjYtqR\njz5nDGcWnO5Oc7pwnLbmDvLYFKmM9zNSEqNe4j5Z+XOG5FpyCIIjrtY3cwGI\n1V7ZsxWqvWaKbdJ9EzO0UZFMPPAfga1ryB6PMDRhrSKaVVbcanydRz5GhrdW\nzQZofN8xL7hExyvw530pupv1E5YnEol4bl2cLdHoGuYDtaYryiXikaWiHf9h\nbszRnRSeIAMlVtx3A8BSfZFC7OkhKIqACUQmX4jGpQ9d8SIY+2OfxPd30EHk\nHTWPWMBwoKMtGUq5mTrsjzfjmOAdBhk+crA71SbmRlxLwQ0XujXfGrYgruuU\n/CV0ls/g+dxBO59/y/Y1FS7wBAwDcSmvdX1iqxcPL+mgDroqAqJ8ijv7vd6E\nHaKMQLUjWkd+ajXAADXxRkCl86276b0lUgPrQ1MbRLNlirXZk9/hPKu6GJFA\nzqErebzBvW8lksqfh7Jx0aUHNCZv6rp9uYWK8bYpQ2ONvkDBeZPRfDGZdh4+\nH/jJwQ7JeRb/1eiWNLXlZ9mKtGQ3v4Y4BzsEobjhRkJmCK9vOt0P/5R6RFnT\nyKrJuidoyQLla/I5oUbl/UKA3JklhxlqQAqeuJ7aJteVOJbxr3QqIqsipbCP\na7IFniHuLC0hTU6HnLJ8UhqxH/53r/TQ+kd73cYtgLYdvA2h1O/gHaNwydfz\nr1YdL3VbHsziy8C3ty928Ic9HjGQaOp+P72YUHgfzMRY3edEBDtjOP+az6hB\nfxCg04IeB+sg6xSfNDXKuikXcMzgmmNs+uUZUCdWsKdpHT/dApwtal82aMBV\nIo8XLfG9QZrIdVJnjCWIyVezoGixpV0s6akQZxfcbSRT41SlhHoTlKBW6kej\nTIOem7t9MhvOMqkKYjBYYv+lJ9B2YE8ncakeZVn7gB3grvP2nSO3NTHYy2TE\nBsDgvby6QNXc0Fd99j4FpisfkVxTfMiiKgwbZRF/pbTy4Efypqz+2fnZhCdV\nJB8OPQT1WcIgJzQeQn+5zs23b1a0yodFn9s/aNId91j9WFP5L3eSCYRMhCP/\nv5Ct47JUh52SM+ZOSSYXp1UD780/ypIiPOvKw0kHBhryRzltAeurFjBabxhr\nBGUwm4wFkNZw+1q8HdGK5SAtqOA7QnIIKikzXDq+ZUS6SyWHTm7dC/LnCUfG\n2rcWSsf1lgeVPQtR/ueVYDZ43qTLU8eCCCqZe7aBouPxeRwwURfTYRZ5RR4W\nObzc1xom92aI1RmmWRF701paxsag3Z5kNwU+xnpIyMG5bDclXmp/tZf/VuEU\n4v0JvHiWLUwS0DQ2EGpM2HM8j8v3b8IFm/MwkrFV55XAAINuKSOvoOqvgXZH\nCbqQGLPmbT6z/9HYRyA45DeAZkdDNHv6Ho5gK7NBSsKEiT54JtO0pyDrdRcr\nXQN+tZ029tyIjZavgMxAuQ339vQ9eTyb1V5oeAY27V7hGTMwYfDZSdg4xF3l\n9sH9AbdY24npdQNFqxVBTJTedvkOkcYDs4E44kLH7L1guEVRsHrtGQ4IYMMg\nlDcN9oKvQXPB7LzXGqGR521nluWaWLS4jlnRw6UiHdd/YGfSjT0/vpkFTKLd\nOpiipM+h9TnLZb3rmFgZo+Z4EHrmLIvmazJWvdlD5VYheJ6SuVCWDXvlqCUL\nFT8HFKJro8IeoOUh7jnP9BxRyS+CxyiCE4svMK/CDFTlSmNMf2KwZ9E/KKHg\npqKxeNntIneXMhnJ6F+jBS/DNJBtG7wVRm8TOvZXIbTDSvVGc51xpSiQiEz4\na1GmZ10ZU8qhJtTJWAcJRC2orZPgx5LkQQ9wFPAfN5yEMZd6da6j3ghKAVY6\n/BdXaYGK0PANuVHBWh5vaNL5SSqt3Sw6bIfnS1ExHXUrs9+GYGxWU7XiV7ZR\nL/c27EhQlzx6pHOlKDbqDjqJD9jxlp6M68ykXZagiktx8IJ4/RSaBN2zCwEa\nDcOnwI7aMiPtNVo7PiZlBRFn5zECczCtR69g10KQa9xW9Jx6cuBFbcLgzRGb\nypQxjFbYBugKMp5e4TBCdS+LzvWW+VU21e6QMoZaSMltwO/u2sc6EiPuuCBn\nVG9S1C4IiGSKoX/NPDP7w1+9tXlgV2gnYutTcX4g3gjQN1x3dR4HDzUq1aHU\ntx2CtBQw3CFgDaN0U+8K1SCWC63zSdMGrXhjzA==\n",
  "encrypted_notes": null
}]]></config>
</Javalab>
